; generated by PrusaSlicer 2.8.1+linux-x64-GTK3 on 2024-11-29 at 04:42:29 UTC


;
;
; 

; external perimeters extrusion width = 0.45mm
; perimeters extrusion width = 0.45mm
; infill extrusion width = 0.45mm
; solid infill extrusion width = 0.45mm
; top infill extrusion width = 0.40mm
; first layer extrusion width = 0.42mm

M73 P0 R67
M73 Q0 S67
M201 X1000 Y1000 Z200 E5000 ; sets maximum accelerations, mm/sec^2
M203 X200 Y200 Z12 E120 ; sets maximum feedrates, mm / sec
M204 S1250 T1250 ; sets acceleration (S) and retract acceleration (R), mm/sec^2
M205 X8.00 Y8.00 Z0.40 E4.50 ; sets the jerk limits, mm/sec
M205 S0 T0 ; sets the minimum extruding and travel feed rate, mm/sec

; printing object battery-lid id:0 copy 0
; stop printing object battery-lid id:0 copy 0

;TYPE:Custom
M862.3 P "MK3S" ; printer model check
M862.1 P0.4 ; nozzle diameter check
M115 U3.14.0 ; tell printer latest fw version
G90 ; use absolute coordinates
M83 ; extruder relative mode
M104 S215 ; set extruder temp
M140 S60 ; set bed temp
M190 S60 ; wait for bed temp
M109 S215 ; wait for extruder temp
G28 W ; home all without mesh bed level
G80 X89.5229 Y69.6229 W70.9542 H74.7542 ; mesh bed levelling

G1 Z0.2 F720
G1 Y-3 F1000 ; go outside print area
G92 E0
G1 X60 E9 F1000 ; intro line
G1 X100 E12.5 F1000 ; intro line

G92 E0
M221 S95

; Don't change E values below. Excessive value can damage the printer.
M907 E430 ; set extruder motor current
G21 ; set units to millimeters
G90 ; use absolute coordinates
M83 ; use relative distances for extrusion

M900 K0.05 ; Filament gcode LA 1.5
M900 K30 ; Filament gcode LA 1.0




M107
;LAYER_CHANGE
;Z:0.2
;HEIGHT:0.2
G1 E-.8 F2100
G1 Z.6 F720
G1 X91.022 Y70.724 F10800
G1 Z.2 F720
G1 E.8 F2100
M204 S800
;TYPE:Skirt/Brim
;WIDTH:0.42
G1 F1200
G1 X92.068 Y69.938 E.04102
G1 X92.8 Y69.811 E.02329
G1 X157.2 Y69.811 E2.01922
G1 X158.448 Y70.202 E.04101
G1 X159.251 Y71.235 E.04102
G1 X159.388 Y71.965 E.02329
G1 X160.289 Y129 E1.78852
G1 X160.28 Y132.196 E.10021
G1 X159.38 Y142.196 E.31481
G1 X158.879 Y143.404 E.041
G1 X157.2 Y144.189 E.05811
G1 X92.8 Y144.189 E2.01922
G1 X91.552 Y143.798 E.04101
G1 X90.62 Y142.196 E.05811
G1 X89.711 Y132 E.32096
G1 X90.612 Y71.965 E1.88257
G1 X91.003 Y70.781 E.0391
M204 S1000
;WIPE_START
G1 F8640
G1 X91.022 Y70.724 E-.01387
G1 X92.068 Y69.938 E-.30211
G1 X92.8 Y69.811 E-.17155
G1 X94.153 Y69.811 E-.31247
;WIPE_END
G1 Z.6 F720
; printing object battery-lid id:0 copy 0
G1 X156.308 Y131.12 F10800
G1 Z.2 F720
G1 E.8 F2100
M204 S800
;TYPE:Perimeter
;WIDTH:0.419999
G1 F1200
G1 X156.185 Y131.27 E.00608
G1 X156.092 Y131.457 E.00655
G1 X156.036 Y131.779 E.01025
G1 X156.036 Y140.836 E.28398
G1 X93.964 Y140.836 E1.94622
G1 X93.963 Y131.723 E.28573
G1 X93.877 Y131.382 E.01103
G1 X93.674 Y131.098 E.01095
G1 X93.339 Y130.891 E.01235
G1 X93.064 Y130.843 E.00875
G1 X93.064 Y130.157 E.02151
G1 X93.339 Y130.109 E.00875
G1 X93.674 Y129.902 E.01235
G1 X93.815 Y129.73 E.00697
G1 X93.908 Y129.543 E.00655
G1 X93.964 Y129.221 E.01025
G1 X93.964 Y73.164 E1.75762
G1 X156.036 Y73.164 E1.94622
M73 P0 R66
G1 X156.036 Y129.221 E1.75762
G1 X156.123 Y129.618 E.01274
G1 X156.326 Y129.902 E.01095
G1 X156.661 Y130.109 E.01235
G1 X156.936 Y130.157 E.00875
G1 X156.936 Y130.843 E.02151
G1 X156.661 Y130.891 E.00875
G1 X156.353 Y131.082 E.01136
M204 S1000
G1 X156.353 Y131.082 F10800
G1 X156.571 Y131.393
M204 S800
G1 F1200
G1 X156.465 Y131.541 E.00571
G1 X156.413 Y131.779 E.00764
G1 X156.413 Y141.213 E.2958
G1 X93.587 Y141.213 E1.96986
G1 X93.587 Y131.779 E.2958
G1 X93.564 Y131.617 E.00513
G1 X93.413 Y131.37 E.00908
G1 X93.212 Y131.246 E.0074
G1 X92.687 Y131.213 E.01649
G1 X92.687 Y129.787 E.04471
G1 X93.212 Y129.754 E.01649
G1 X93.413 Y129.63 E.0074
G1 X93.535 Y129.459 E.00659
G1 X93.587 Y129.221 E.00764
G1 X93.587 Y72.787 E1.76945
G1 X156.413 Y72.787 E1.96986
M73 P1 R66
M73 Q1 S67
G1 X156.413 Y129.221 E1.76945
G1 X156.436 Y129.383 E.00513
G1 X156.587 Y129.63 E.00908
G1 X156.788 Y129.754 E.0074
G1 X157.313 Y129.787 E.01649
G1 X157.313 Y130.121 E.01047
G1 X157.313 Y131.213 E.03424
G1 X156.788 Y131.246 E.01649
G1 X156.614 Y131.354 E.00642
M204 S1000
G1 X156.614 Y131.354 F10800
G1 X156.833 Y131.677
M204 S800
;TYPE:External perimeter
G1 F1200
G1 X156.79 Y131.779 E.00347
G1 X156.79 Y141.59 E.30762
G1 X93.21 Y141.59 E1.9935
G1 X93.21 Y131.779 E.30762
M73 Q1 S66
G1 X93.152 Y131.642 E.00466
G1 X93.021 Y131.59 E.00442
G1 X92.31 Y131.59 E.02229
G1 X92.31 Y129.41 E.06835
G1 X93.021 Y129.41 E.02229
G1 X93.152 Y129.358 E.00442
G1 X93.21 Y129.221 E.00466
G1 X93.21 Y72.41 E1.78127
G1 X156.79 Y72.41 E1.9935
G1 X156.79 Y129.221 E1.78127
G1 X156.848 Y129.358 E.00466
G1 X156.979 Y129.41 E.00442
G1 X157.69 Y129.41 E.02229
G1 X157.69 Y130.121 E.02229
G1 X157.69 Y131.59 E.04606
G1 X156.979 Y131.59 E.02229
G1 X156.869 Y131.634 E.00371
M204 S1000
;WIPE_START
G1 F8640
G1 X156.833 Y131.677 E-.01295
G1 X156.79 Y131.779 E-.02556
G1 X156.79 Y135.077 E-.76149
;WIPE_END
G1 Z.6 F720
G1 X155.866 Y74.097 F10800
G1 Z.2 F720
G1 E.8 F2100
M204 S800
;TYPE:Solid infill
;WIDTH:0.420257
G1 F1200
G1 X155.273 Y73.504 E.02631
G1 X154.739 Y73.504 E.01675
G1 X155.696 Y74.461 E.04246
G1 X155.696 Y74.994 E.01672
G1 X154.206 Y73.504 E.06611
G1 X153.672 Y73.504 E.01675
G1 X155.696 Y75.528 E.08981
G1 X155.696 Y76.062 E.01675
G1 X153.138 Y73.504 E.1135
G1 X152.605 Y73.504 E.01672
G1 X155.696 Y76.595 E.13715
G1 X155.696 Y77.129 E.01675
G1 X152.071 Y73.504 E.16085
G1 X151.538 Y73.504 E.01672
G1 X155.696 Y77.662 E.1845
G1 X155.696 Y78.196 E.01675
G1 X151.004 Y73.504 E.20819
G1 X150.47 Y73.504 E.01675
G1 X155.696 Y78.73 E.23189
G1 X155.696 Y79.263 E.01672
G1 X149.937 Y73.504 E.25554
G1 X149.403 Y73.504 E.01675
G1 X155.696 Y79.797 E.27923
G1 X155.696 Y80.331 E.01675
G1 X148.869 Y73.504 E.30293
G1 X148.336 Y73.504 E.01672
G1 X155.696 Y80.864 E.32658
G1 X155.696 Y81.398 E.01675
G1 X147.802 Y73.504 E.35027
G1 X147.269 Y73.504 E.01672
G1 X155.696 Y81.932 E.37394
G1 X155.696 Y82.465 E.01672
G1 X146.735 Y73.504 E.39762
G1 X146.201 Y73.504 E.01675
G1 X155.696 Y82.999 E.42131
G1 X155.696 Y83.532 E.01672
G1 X145.668 Y73.504 E.44496
G1 X145.134 Y73.504 E.01675
G1 X155.696 Y84.066 E.46866
G1 X155.696 Y84.6 E.01675
G1 X144.6 Y73.504 E.49235
G1 X144.067 Y73.504 E.01672
G1 X155.696 Y85.133 E.516
G1 X155.696 Y85.667 E.01675
G1 X143.533 Y73.504 E.5397
G1 X142.999 Y73.504 E.01675
G1 X155.696 Y86.201 E.56339
G1 X155.696 Y86.734 E.01672
G1 X142.466 Y73.504 E.58704
G1 X141.932 Y73.504 E.01675
G1 X155.696 Y87.268 E.61074
G1 X155.696 Y87.801 E.01672
G1 X141.399 Y73.504 E.63439
G1 X140.865 Y73.504 E.01675
G1 X155.696 Y88.335 E.65808
G1 X155.696 Y88.869 E.01675
G1 X140.331 Y73.504 E.68177
G1 X139.798 Y73.504 E.01672
G1 X155.696 Y89.402 E.70543
G1 X155.696 Y89.936 E.01675
M73 P2 R66
M73 Q2 S66
G1 X139.264 Y73.504 E.72912
G1 X138.73 Y73.504 E.01675
G1 X155.696 Y90.47 E.75281
G1 X155.696 Y91.003 E.01672
G1 X138.197 Y73.504 E.77646
G1 X137.663 Y73.504 E.01675
G1 X155.696 Y91.537 E.80016
G1 X155.696 Y92.071 E.01675
G1 X137.129 Y73.504 E.82385
G1 X136.596 Y73.504 E.01672
G1 X155.696 Y92.604 E.8475
G1 X155.696 Y93.138 E.01675
M73 P2 R65
G1 X136.062 Y73.504 E.8712
G1 X135.529 Y73.504 E.01672
G1 X155.696 Y93.671 E.89485
G1 X155.696 Y94.205 E.01675
G1 X134.995 Y73.504 E.91854
G1 X134.461 Y73.504 E.01675
G1 X155.696 Y94.739 E.94224
G1 X155.696 Y95.272 E.01672
G1 X133.928 Y73.504 E.96589
G1 X133.394 Y73.504 E.01675
G1 X155.696 Y95.806 E.98958
G1 X155.696 Y96.34 E.01675
G1 X132.86 Y73.504 E1.01328
G1 X132.327 Y73.504 E.01672
G1 X155.696 Y96.873 E1.03693
G1 X155.696 Y97.407 E.01675
G1 X131.793 Y73.504 E1.06062
G1 X131.259 Y73.504 E.01675
G1 X155.696 Y97.941 E1.08432
G1 X155.696 Y98.474 E.01672
G1 X130.726 Y73.504 E1.10797
G1 X130.192 Y73.504 E.01675
G1 X155.696 Y99.008 E1.13166
G1 X155.696 Y99.541 E.01672
G1 X129.659 Y73.504 E1.15531
G1 X129.125 Y73.504 E.01675
G1 X155.696 Y100.075 E1.17901
G1 X155.696 Y100.609 E.01675
M73 Q2 S65
G1 X128.591 Y73.504 E1.2027
G1 X128.058 Y73.504 E.01672
G1 X155.696 Y101.142 E1.22635
G1 X155.696 Y101.676 E.01675
G1 X127.524 Y73.504 E1.25005
G1 X126.99 Y73.504 E.01675
G1 X155.696 Y102.21 E1.27374
G1 X155.696 Y102.743 E.01672
G1 X126.457 Y73.504 E1.29739
G1 X125.923 Y73.504 E.01675
M73 P3 R65
M73 Q3 S65
G1 X155.696 Y103.277 E1.32109
G1 X155.696 Y103.811 E.01675
G1 X125.389 Y73.504 E1.34478
G1 X124.856 Y73.504 E.01672
G1 X155.696 Y104.344 E1.36843
G1 X155.696 Y104.878 E.01675
G1 X124.322 Y73.504 E1.39213
G1 X123.789 Y73.504 E.01672
G1 X155.696 Y105.411 E1.41578
G1 X155.696 Y105.945 E.01675
G1 X123.255 Y73.504 E1.43947
G1 X122.721 Y73.504 E.01675
G1 X155.696 Y106.479 E1.46316
G1 X155.696 Y107.012 E.01672
G1 X122.188 Y73.504 E1.48682
G1 X121.654 Y73.504 E.01675
G1 X155.696 Y107.546 E1.51051
G1 X155.696 Y108.08 E.01675
G1 X121.12 Y73.504 E1.5342
G1 X120.587 Y73.504 E.01672
G1 X155.696 Y108.613 E1.55785
G1 X155.696 Y109.147 E.01675
G1 X120.053 Y73.504 E1.58155
G1 X119.519 Y73.504 E.01675
M73 P3 R64
G1 X155.696 Y109.681 E1.60524
G1 X155.696 Y110.214 E.01672
G1 X118.986 Y73.504 E1.62889
G1 X118.452 Y73.504 E.01675
G1 X155.696 Y110.748 E1.65259
G1 X155.696 Y111.281 E.01672
G1 X117.919 Y73.504 E1.67624
G1 X117.385 Y73.504 E.01675
G1 X155.696 Y111.815 E1.69993
G1 X155.696 Y112.349 E.01675
M73 P4 R64
M73 Q4 S65
G1 X116.851 Y73.504 E1.72363
G1 X116.318 Y73.504 E.01672
G1 X155.696 Y112.882 E1.74728
G1 X155.696 Y113.416 E.01675
G1 X115.784 Y73.504 E1.77097
G1 X115.25 Y73.504 E.01675
M73 Q4 S64
G1 X155.696 Y113.95 E1.79467
G1 X155.696 Y114.483 E.01672
G1 X114.717 Y73.504 E1.81832
G1 X114.183 Y73.504 E.01675
G1 X155.696 Y115.017 E1.84201
G1 X155.696 Y115.551 E.01675
G1 X113.649 Y73.504 E1.86571
G1 X113.116 Y73.504 E.01672
G1 X155.696 Y116.084 E1.88936
G1 X155.696 Y116.618 E.01675
G1 X112.582 Y73.504 E1.91305
G1 X112.049 Y73.504 E.01672
G1 X155.696 Y117.151 E1.9367
G1 X155.696 Y117.685 E.01675
G1 X111.515 Y73.504 E1.9604
G1 X110.981 Y73.504 E.01675
G1 X155.696 Y118.219 E1.98409
G1 X155.696 Y118.752 E.01672
G1 X110.448 Y73.504 E2.00774
G1 X109.914 Y73.504 E.01675
M73 P5 R64
M73 Q5 S64
G1 X155.696 Y119.286 E2.03144
G1 X155.696 Y119.82 E.01675
G1 X109.38 Y73.504 E2.05513
G1 X108.847 Y73.504 E.01672
M73 P5 R63
G1 X155.696 Y120.353 E2.07878
G1 X155.696 Y120.887 E.01675
G1 X108.313 Y73.504 E2.10248
G1 X107.78 Y73.504 E.01672
G1 X155.696 Y121.42 E2.12613
G1 X155.696 Y121.954 E.01675
G1 X107.246 Y73.504 E2.14982
G1 X106.712 Y73.504 E.01675
G1 X155.696 Y122.488 E2.17352
G1 X155.696 Y123.021 E.01672
G1 X106.179 Y73.504 E2.19717
G1 X105.645 Y73.504 E.01675
G1 X155.696 Y123.555 E2.22086
G1 X155.696 Y124.089 E.01675
M73 Q5 S63
G1 X105.111 Y73.504 E2.24455
G1 X104.578 Y73.504 E.01672
G1 X155.696 Y124.622 E2.26821
G1 X155.696 Y125.156 E.01675
G1 X104.044 Y73.504 E2.2919
G1 X103.51 Y73.504 E.01675
M73 P6 R63
M73 Q6 S63
G1 X155.696 Y125.69 E2.31559
G1 X155.696 Y126.223 E.01672
G1 X102.977 Y73.504 E2.33924
G1 X102.443 Y73.504 E.01675
G1 X155.696 Y126.757 E2.36294
G1 X155.696 Y127.29 E.01672
G1 X101.91 Y73.504 E2.38659
G1 X101.376 Y73.504 E.01675
G1 X155.696 Y127.824 E2.41028
G1 X155.696 Y128.358 E.01675
G1 X100.842 Y73.504 E2.43398
G1 X100.309 Y73.504 E.01672
G1 X155.696 Y128.891 E2.45763
G1 X155.696 Y129.23 E.01064
M73 P6 R62
G1 X155.72 Y129.449 E.00691
G1 X99.775 Y73.504 E2.48239
G1 X99.241 Y73.504 E.01675
G1 X156.397 Y130.66 E2.53612
G1 X156.075 Y130.871 E.01208
G1 X98.708 Y73.504 E2.54549
G1 X98.174 Y73.504 E.01675
M73 P7 R62
M73 Q7 S63
G1 X155.849 Y131.178 E2.55913
G1 X155.749 Y131.414 E.00804
G1 X155.715 Y131.578 E.00526
G1 X97.64 Y73.504 E2.57688
G1 X97.107 Y73.504 E.01672
M73 Q7 S62
G1 X155.703 Y132.1 E2.60002
G1 X155.703 Y132.633 E.01672
G1 X96.573 Y73.504 E2.62369
G1 X96.04 Y73.504 E.01672
G1 X155.703 Y133.167 E2.64736
G1 X155.702 Y133.7 E.01672
G1 X95.506 Y73.504 E2.67101
G1 X94.972 Y73.504 E.01675
G1 X155.702 Y134.233 E2.69469
G1 X155.701 Y134.766 E.01672
G1 X94.439 Y73.504 E2.71831
G1 X94.304 Y73.504 E.00424
G1 X94.304 Y73.902 E.01249
G1 X155.701 Y135.299 E2.7243
G1 X155.7 Y135.833 E.01675
G1 X94.304 Y74.436 E2.72428
G1 X94.304 Y74.969 E.01672
M73 P8 R62
M73 Q8 S62
G1 X155.7 Y136.366 E2.72428
G1 X155.7 Y136.899 E.01672
M73 P8 R61
G1 X94.304 Y75.503 E2.72426
G1 X94.304 Y76.037 E.01675
G1 X155.699 Y137.432 E2.72422
G1 X155.699 Y137.965 E.01672
G1 X94.304 Y76.57 E2.72422
G1 X94.304 Y77.104 E.01675
G1 X155.698 Y138.499 E2.72419
G1 X155.698 Y139.032 E.01672
G1 X94.304 Y77.638 E2.72417
G1 X94.304 Y78.171 E.01672
M73 Q8 S61
G1 X155.697 Y139.565 E2.72415
G1 X155.697 Y140.098 E.01672
G1 X94.304 Y78.705 E2.72413
G1 X94.304 Y79.238 E.01672
G1 X155.562 Y140.496 E2.71814
G1 X155.028 Y140.496 E.01675
M73 P9 R61
M73 Q9 S61
G1 X94.304 Y79.772 E2.69444
G1 X94.304 Y80.306 E.01675
G1 X154.494 Y140.496 E2.67075
G1 X153.961 Y140.496 E.01672
G1 X94.304 Y80.839 E2.6471
G1 X94.304 Y81.373 E.01675
G1 X153.427 Y140.496 E2.6234
G1 X152.893 Y140.496 E.01675
G1 X94.304 Y81.907 E2.59971
G1 X94.304 Y82.44 E.01672
G1 X152.36 Y140.496 E2.57606
G1 X151.826 Y140.496 E.01675
M73 P9 R60
G1 X94.304 Y82.974 E2.55236
G1 X94.304 Y83.507 E.01672
G1 X151.293 Y140.496 E2.52871
G1 X150.759 Y140.496 E.01675
G1 X94.304 Y84.041 E2.50502
G1 X94.304 Y84.575 E.01675
G1 X150.225 Y140.496 E2.48132
G1 X149.692 Y140.496 E.01672
M73 P10 R60
M73 Q10 S61
G1 X94.304 Y85.108 E2.45767
G1 X94.304 Y85.642 E.01675
M73 Q10 S60
G1 X149.158 Y140.496 E2.43398
G1 X148.624 Y140.496 E.01675
G1 X94.304 Y86.176 E2.41028
G1 X94.304 Y86.709 E.01672
G1 X148.091 Y140.496 E2.38663
G1 X147.557 Y140.496 E.01675
G1 X94.304 Y87.243 E2.36294
G1 X94.304 Y87.777 E.01675
G1 X147.023 Y140.496 E2.33924
G1 X146.49 Y140.496 E.01672
G1 X94.304 Y88.31 E2.31559
G1 X94.304 Y88.844 E.01675
G1 X145.956 Y140.496 E2.2919
G1 X145.423 Y140.496 E.01672
G1 X94.304 Y89.377 E2.26825
G1 X94.304 Y89.911 E.01675
G1 X144.889 Y140.496 E2.24455
G1 X144.355 Y140.496 E.01675
M73 P11 R60
G1 X94.304 Y90.445 E2.22086
G1 X94.304 Y90.978 E.01672
M73 P11 R59
M73 Q11 S60
G1 X143.822 Y140.496 E2.19721
G1 X143.288 Y140.496 E.01675
G1 X94.304 Y91.512 E2.17352
G1 X94.304 Y92.046 E.01675
G1 X142.754 Y140.496 E2.14982
G1 X142.221 Y140.496 E.01672
G1 X94.304 Y92.579 E2.12617
G1 X94.304 Y93.113 E.01675
G1 X141.687 Y140.496 E2.10248
G1 X141.153 Y140.496 E.01675
G1 X94.304 Y93.647 E2.07878
G1 X94.304 Y94.18 E.01672
G1 X140.62 Y140.496 E2.05513
G1 X140.086 Y140.496 E.01675
M73 Q11 S59
G1 X94.304 Y94.714 E2.03144
G1 X94.304 Y95.247 E.01672
G1 X139.553 Y140.496 E2.00779
G1 X139.019 Y140.496 E.01675
G1 X94.304 Y95.781 E1.98409
G1 X94.304 Y96.315 E.01675
G1 X138.485 Y140.496 E1.9604
G1 X137.952 Y140.496 E.01672
M73 P12 R59
G1 X94.304 Y96.848 E1.93675
G1 X94.304 Y97.382 E.01675
M73 Q12 S59
G1 X137.418 Y140.496 E1.91305
G1 X136.884 Y140.496 E.01675
G1 X94.304 Y97.916 E1.88936
G1 X94.304 Y98.449 E.01672
G1 X136.351 Y140.496 E1.86571
G1 X135.817 Y140.496 E.01675
G1 X94.304 Y98.983 E1.84201
G1 X94.304 Y99.517 E.01675
G1 X135.283 Y140.496 E1.81832
G1 X134.75 Y140.496 E.01672
G1 X94.304 Y100.05 E1.79467
G1 X94.304 Y100.584 E.01675
G1 X134.216 Y140.496 E1.77097
G1 X133.683 Y140.496 E.01672
M73 P12 R58
G1 X94.304 Y101.117 E1.74732
G1 X94.304 Y101.651 E.01675
G1 X133.149 Y140.496 E1.72363
G1 X132.615 Y140.496 E.01675
G1 X94.304 Y102.185 E1.69993
G1 X94.304 Y102.718 E.01672
G1 X132.082 Y140.496 E1.67628
G1 X131.548 Y140.496 E.01675
G1 X94.304 Y103.252 E1.65259
G1 X94.304 Y103.786 E.01675
G1 X131.014 Y140.496 E1.62889
G1 X130.481 Y140.496 E.01672
M73 P13 R58
G1 X94.304 Y104.319 E1.60524
G1 X94.304 Y104.853 E.01675
M73 Q13 S59
G1 X129.947 Y140.496 E1.58155
G1 X129.413 Y140.496 E.01675
M73 Q13 S58
G1 X94.304 Y105.387 E1.55785
G1 X94.304 Y105.92 E.01672
G1 X128.88 Y140.496 E1.5342
G1 X128.346 Y140.496 E.01675
G1 X94.304 Y106.454 E1.51051
G1 X94.304 Y106.987 E.01672
G1 X127.813 Y140.496 E1.48686
G1 X127.279 Y140.496 E.01675
G1 X94.304 Y107.521 E1.46316
G1 X94.304 Y108.055 E.01675
G1 X126.745 Y140.496 E1.43947
G1 X126.212 Y140.496 E.01672
G1 X94.304 Y108.588 E1.41582
G1 X94.304 Y109.122 E.01675
G1 X125.678 Y140.496 E1.39213
G1 X125.144 Y140.496 E.01675
G1 X94.304 Y109.656 E1.36843
G1 X94.304 Y110.189 E.01672
