; generated by PrusaSlicer 2.8.1+linux-x64-GTK3 on 2024-11-29 at 04:47:06 UTC


;
;
; 

; external perimeters extrusion width = 0.45mm
; perimeters extrusion width = 0.45mm
; infill extrusion width = 0.45mm
; solid infill extrusion width = 0.45mm
; top infill extrusion width = 0.40mm
; first layer extrusion width = 0.42mm

M73 P0 R54
M73 Q0 S54
M201 X1000 Y1000 Z200 E5000 ; sets maximum accelerations, mm/sec^2
M203 X200 Y200 Z12 E120 ; sets maximum feedrates, mm / sec
M204 S1250 T1250 ; sets acceleration (S) and retract acceleration (R), mm/sec^2
M205 X8.00 Y8.00 Z0.40 E4.50 ; sets the jerk limits, mm/sec
M205 S0 T0 ; sets the minimum extruding and travel feed rate, mm/sec

; printing object easy-battery-lid id:0 copy 0
; stop printing object easy-battery-lid id:0 copy 0

;TYPE:Custom
M862.3 P "MK3S" ; printer model check
M862.1 P0.4 ; nozzle diameter check
M115 U3.14.0 ; tell printer latest fw version
G90 ; use absolute coordinates
M83 ; extruder relative mode
M104 S215 ; set extruder temp
M140 S60 ; set bed temp
M190 S60 ; wait for bed temp
M109 S215 ; wait for extruder temp
G28 W ; home all without mesh bed level
G80 X89.6006 Y69.9847 W70.9542 H30.3194 ; mesh bed levelling

G1 Z0.2 F720
G1 Y-3 F1000 ; go outside print area
G92 E0
G1 X60 E9 F1000 ; intro line
G1 X100 E12.5 F1000 ; intro line

G92 E0
M221 S95

; Don't change E values below. Excessive value can damage the printer.
M907 E430 ; set extruder motor current
G21 ; set units to millimeters
G90 ; use absolute coordinates
M83 ; use relative distances for extrusion

M900 K0.05 ; Filament gcode LA 1.5
M900 K30 ; Filament gcode LA 1.0




M107
;LAYER_CHANGE
;Z:0.2
;HEIGHT:0.2
G1 E-.8 F2100
G1 Z.6 F720
G1 X90.839 Y71.565 F10800
G1 Z.2 F720
G1 E.8 F2100
M204 S800
;TYPE:Skirt/Brim
;WIDTH:0.42
G1 F1200
G1 X91.658 Y70.545 E.04101
G1 X92.878 Y70.173 E.03999
G1 X157.278 Y70.173 E2.01922
G1 X158.526 Y70.564 E.04101
G1 X159.316 Y71.565 E.03998
G1 X160.216 Y73.868 E.07753
G1 X160.366 Y74.665 E.02543
G1 X160.366 Y90.664 E.50164
G1 X159.45 Y98.196 E.2379
G1 X158.908 Y99.387 E.04103
G1 X157.278 Y100.116 E.05599
G1 X92.878 Y100.116 E2.01922
G1 X91.629 Y99.725 E.04104
G1 X90.706 Y98.196 E.056
G1 X89.789 Y90.664 E.2379
G1 X89.789 Y74.665 E.50164
G1 X89.939 Y73.868 E.02543
G1 X90.817 Y71.621 E.07564
M204 S1000
;WIPE_START
G1 F8640
G1 X90.839 Y71.565 E-.01389
G1 X91.658 Y70.545 E-.30205
G1 X92.878 Y70.173 E-.29451
G1 X93.699 Y70.173 E-.18955
;WIPE_END
G1 Z.6 F720
; printing object easy-battery-lid id:0 copy 0
G1 X93.485 Y75.278 F10800
G1 Z.2 F720
G1 E.8 F2100
M204 S800
;TYPE:Perimeter
;WIDTH:0.419999
G1 F1200
G1 X93.576 Y75.193 E.0039
G1 X93.665 Y74.889 E.00993
G1 X93.665 Y73.154 E.0544
G1 X156.491 Y73.154 E1.96986
G1 X156.491 Y74.889 E.0544
M73 P0 R53
G1 X156.579 Y75.193 E.00992
G1 X156.782 Y75.384 E.00874
G1 X157.056 Y75.455 E.00887
G1 X157.391 Y75.455 E.0105
G1 X157.391 Y75.789 E.01047
G1 X157.391 Y77.595 E.05663
G1 X92.765 Y77.595 E2.0263
G1 X92.765 Y75.455 E.0671
G1 X93.099 Y75.455 E.01047
G1 X93.373 Y75.384 E.00887
G1 X93.442 Y75.319 E.00297
M204 S1000
G1 X93.442 Y75.319 F10800
G1 X93.202 Y75.021
M204 S800
;TYPE:External perimeter
G1 F1200
G1 X93.258 Y74.99 E.00201
G1 X93.288 Y74.889 E.0033
G1 X93.288 Y72.777 E.06622
G1 X156.868 Y72.777 E1.9935
G1 X156.868 Y74.889 E.06622
M73 Q0 S53
G1 X156.897 Y74.99 E.00329
G1 X157.056 Y75.078 E.0057
G1 X157.768 Y75.078 E.02232
G1 X157.768 Y75.789 E.02229
G1 X157.768 Y77.973 E.06848
G1 X92.388 Y77.973 E2.04994
G1 X92.388 Y75.078 E.09077
G1 X93.099 Y75.078 E.02229
G1 X93.15 Y75.05 E.00182
M204 S1000
;WIPE_START
G1 F8640
G1 X93.202 Y75.021 E-.01375
G1 X93.258 Y74.99 E-.01478
G1 X93.288 Y74.889 E-.02433
G1 X93.288 Y72.777 E-.48767
G1 X94.412 Y72.777 E-.25947
;WIPE_END
G1 Z.6 F720
G1 X155.554 Y73.324 F10800
G1 Z.2 F720
G1 E.8 F2100
M204 S800
;TYPE:Solid infill
;WIDTH:0.422084
G1 F1200
G1 X156.151 Y73.921 E.02662
G1 X156.151 Y74.457 E.0169
G1 X155.188 Y73.494 E.04294
M73 Q1 S53
G1 X154.651 Y73.494 E.01693
G1 X156.161 Y75.003 E.0673
G1 X156.165 Y75.055 E.00164
G1 X156.292 Y75.381 E.01103
G1 X156.616 Y75.685 E.01401
G1 X156.922 Y75.764 E.00996
G1 X157.051 Y75.893 E.00575
G1 X157.051 Y76.43 E.01693
G1 X154.115 Y73.494 E.13091
G1 X153.579 Y73.494 E.0169
M73 P1 R53
G1 X157.051 Y76.966 E.15481
G1 X157.051 Y77.256 E.00914
G1 X156.805 Y77.256 E.00776
G1 X153.043 Y73.494 E.16774
G1 X152.507 Y73.494 E.0169
G1 X156.269 Y77.256 E.16774
G1 X155.733 Y77.256 E.0169
G1 X151.97 Y73.494 E.16776
G1 X151.434 Y73.494 E.0169
G1 X155.197 Y77.256 E.16776
G1 X154.66 Y77.256 E.01693
G1 X150.898 Y73.494 E.16774
G1 X150.362 Y73.494 E.0169
G1 X154.124 Y77.256 E.16774
G1 X153.588 Y77.256 E.0169
G1 X149.825 Y73.494 E.16776
G1 X149.289 Y73.494 E.0169
G1 X153.052 Y77.256 E.16776
G1 X152.515 Y77.256 E.01693
G1 X148.753 Y73.494 E.16774
G1 X148.217 Y73.494 E.0169
G1 X151.979 Y77.256 E.16774
G1 X151.443 Y77.256 E.0169
G1 X147.681 Y73.494 E.16774
G1 X147.144 Y73.494 E.01693
G1 X150.907 Y77.256 E.16776
G1 X150.371 Y77.256 E.0169
G1 X146.608 Y73.494 E.16776
G1 X146.072 Y73.494 E.0169
G1 X149.834 Y77.256 E.16774
G1 X149.298 Y77.256 E.0169
G1 X145.536 Y73.494 E.16774
G1 X145 Y73.494 E.0169
G1 X148.762 Y77.256 E.16774
G1 X148.226 Y77.256 E.0169
G1 X144.463 Y73.494 E.16776
G1 X143.927 Y73.494 E.0169
G1 X147.69 Y77.256 E.16776
G1 X147.153 Y77.256 E.01693
G1 X143.391 Y73.494 E.16774
G1 X142.855 Y73.494 E.0169
G1 X146.617 Y77.256 E.16774
G1 X146.081 Y77.256 E.0169
G1 X142.318 Y73.494 E.16776
G1 X141.782 Y73.494 E.0169
G1 X145.545 Y77.256 E.16776
G1 X145.008 Y77.256 E.01693
G1 X141.246 Y73.494 E.16774
G1 X140.71 Y73.494 E.0169
G1 X144.472 Y77.256 E.16774
G1 X143.936 Y77.256 E.0169
G1 X140.174 Y73.494 E.16774
G1 X139.637 Y73.494 E.01693
G1 X143.4 Y77.256 E.16776
G1 X142.864 Y77.256 E.0169
G1 X139.101 Y73.494 E.16776
G1 X138.565 Y73.494 E.0169
G1 X142.327 Y77.256 E.16774
G1 X141.791 Y77.256 E.0169
G1 X138.029 Y73.494 E.16774
G1 X137.492 Y73.494 E.01693
G1 X141.255 Y77.256 E.16776
G1 X140.719 Y77.256 E.0169
G1 X136.956 Y73.494 E.16776
G1 X136.42 Y73.494 E.0169
G1 X140.182 Y77.256 E.16774
G1 X139.646 Y77.256 E.0169
G1 X135.884 Y73.494 E.16774
G1 X135.348 Y73.494 E.0169
G1 X139.11 Y77.256 E.16774
G1 X138.574 Y77.256 E.0169
G1 X134.811 Y73.494 E.16776
G1 X134.275 Y73.494 E.0169
G1 X138.038 Y77.256 E.16776
G1 X137.501 Y77.256 E.01693
G1 X133.739 Y73.494 E.16774
G1 X133.203 Y73.494 E.0169
G1 X136.965 Y77.256 E.16774
G1 X136.429 Y77.256 E.0169
G1 X132.666 Y73.494 E.16776
G1 X132.13 Y73.494 E.0169
G1 X135.893 Y77.256 E.16776
G1 X135.356 Y77.256 E.01693
G1 X131.594 Y73.494 E.16774
G1 X131.058 Y73.494 E.0169
G1 X134.82 Y77.256 E.16774
G1 X134.284 Y77.256 E.0169
G1 X130.522 Y73.494 E.16774
G1 X129.985 Y73.494 E.01693
G1 X133.748 Y77.256 E.16776
G1 X133.212 Y77.256 E.0169
G1 X129.449 Y73.494 E.16776
G1 X128.913 Y73.494 E.0169
G1 X132.675 Y77.256 E.16774
G1 X132.139 Y77.256 E.0169
G1 X128.377 Y73.494 E.16774
G1 X127.841 Y73.494 E.0169
G1 X131.603 Y77.256 E.16774
G1 X131.067 Y77.256 E.0169
G1 X127.304 Y73.494 E.16776
G1 X126.768 Y73.494 E.0169
G1 X130.531 Y77.256 E.16776
G1 X129.994 Y77.256 E.01693
G1 X126.232 Y73.494 E.16774
G1 X125.696 Y73.494 E.0169
G1 X129.458 Y77.256 E.16774
G1 X128.922 Y77.256 E.0169
G1 X125.159 Y73.494 E.16776
G1 X124.623 Y73.494 E.0169
G1 X128.386 Y77.256 E.16776
G1 X127.849 Y77.256 E.01693
G1 X124.087 Y73.494 E.16774
G1 X123.551 Y73.494 E.0169
G1 X127.313 Y77.256 E.16774
G1 X126.777 Y77.256 E.0169
G1 X123.015 Y73.494 E.16774
G1 X122.478 Y73.494 E.01693
G1 X126.241 Y77.256 E.16776
G1 X125.705 Y77.256 E.0169
G1 X121.942 Y73.494 E.16776
G1 X121.406 Y73.494 E.0169
G1 X125.168 Y77.256 E.16774
G1 X124.632 Y77.256 E.0169
G1 X120.87 Y73.494 E.16774
G1 X120.333 Y73.494 E.01693
G1 X124.096 Y77.256 E.16776
G1 X123.56 Y77.256 E.0169
G1 X119.797 Y73.494 E.16776
G1 X119.261 Y73.494 E.0169
G1 X123.023 Y77.256 E.16774
G1 X122.487 Y77.256 E.0169
G1 X118.725 Y73.494 E.16774
G1 X118.189 Y73.494 E.0169
G1 X121.951 Y77.256 E.16774
G1 X121.415 Y77.256 E.0169
G1 X117.652 Y73.494 E.16776
G1 X117.116 Y73.494 E.0169
G1 X120.879 Y77.256 E.16776
G1 X120.342 Y77.256 E.01693
G1 X116.58 Y73.494 E.16774
G1 X116.044 Y73.494 E.0169
G1 X119.806 Y77.256 E.16774
G1 X119.27 Y77.256 E.0169
G1 X115.507 Y73.494 E.16776
G1 X114.971 Y73.494 E.0169
G1 X118.734 Y77.256 E.16776
G1 X118.197 Y77.256 E.01693
G1 X114.435 Y73.494 E.16774
G1 X113.899 Y73.494 E.0169
G1 X117.661 Y77.256 E.16774
G1 X117.125 Y77.256 E.0169
G1 X113.363 Y73.494 E.16774
G1 X112.826 Y73.494 E.01693
G1 X116.589 Y77.256 E.16776
G1 X116.053 Y77.256 E.0169
G1 X112.29 Y73.494 E.16776
G1 X111.754 Y73.494 E.0169
G1 X115.516 Y77.256 E.16774
G1 X114.98 Y77.256 E.0169
G1 X111.218 Y73.494 E.16774
G1 X110.681 Y73.494 E.01693
G1 X114.444 Y77.256 E.16776
G1 X113.908 Y77.256 E.0169
G1 X110.145 Y73.494 E.16776
G1 X109.609 Y73.494 E.0169
G1 X113.372 Y77.256 E.16776
G1 X112.835 Y77.256 E.01693
G1 X109.073 Y73.494 E.16774
G1 X108.537 Y73.494 E.0169
G1 X112.299 Y77.256 E.16774
G1 X111.763 Y77.256 E.0169
G1 X108 Y73.494 E.16776
G1 X107.464 Y73.494 E.0169
G1 X111.227 Y77.256 E.16776
G1 X110.69 Y77.256 E.01693
G1 X106.928 Y73.494 E.16774
G1 X106.392 Y73.494 E.0169
G1 X110.154 Y77.256 E.16774
G1 X109.618 Y77.256 E.0169
G1 X105.856 Y73.494 E.16774
G1 X105.319 Y73.494 E.01693
G1 X109.082 Y77.256 E.16776
G1 X108.546 Y77.256 E.0169
G1 X104.783 Y73.494 E.16776
G1 X104.247 Y73.494 E.0169
G1 X108.009 Y77.256 E.16774
G1 X107.473 Y77.256 E.0169
G1 X103.711 Y73.494 E.16774
G1 X103.174 Y73.494 E.01693
G1 X106.937 Y77.256 E.16776
G1 X106.401 Y77.256 E.0169
G1 X102.638 Y73.494 E.16776
G1 X102.102 Y73.494 E.0169
G1 X105.864 Y77.256 E.16774
G1 X105.328 Y77.256 E.0169
G1 X101.566 Y73.494 E.16774
G1 X101.03 Y73.494 E.0169
G1 X104.792 Y77.256 E.16774
G1 X104.256 Y77.256 E.0169
G1 X100.493 Y73.494 E.16776
G1 X99.957 Y73.494 E.0169
G1 X103.72 Y77.256 E.16776
G1 X103.183 Y77.256 E.01693
G1 X99.421 Y73.494 E.16774
G1 X98.885 Y73.494 E.0169
G1 X102.647 Y77.256 E.16774
G1 X102.111 Y77.256 E.0169
G1 X98.348 Y73.494 E.16776
G1 X97.812 Y73.494 E.0169
G1 X101.575 Y77.256 E.16776
G1 X101.038 Y77.256 E.01693
M73 Q2 S53
G1 X97.276 Y73.494 E.16774
G1 X96.74 Y73.494 E.0169
M73 P2 R53
G1 X100.502 Y77.256 E.16774
G1 X99.966 Y77.256 E.0169
G1 X96.204 Y73.494 E.16774
G1 X95.667 Y73.494 E.01693
G1 X99.43 Y77.256 E.16776
G1 X98.894 Y77.256 E.0169
G1 X95.131 Y73.494 E.16776
G1 X94.595 Y73.494 E.0169
G1 X98.357 Y77.256 E.16774
G1 X97.821 Y77.256 E.0169
G1 X94.059 Y73.494 E.16774
G1 X94.004 Y73.494 E.00173
G1 X94.004 Y73.975 E.01516
G1 X97.285 Y77.256 E.14629
G1 X96.749 Y77.256 E.0169
G1 X94.004 Y74.511 E.12239
G1 X93.992 Y75.035 E.01652
G1 X96.213 Y77.256 E.09903
G1 X95.676 Y77.256 E.01693
G1 X93.831 Y75.411 E.08226
G1 X93.555 Y75.671 E.01195
G1 X95.14 Y77.256 E.07067
G1 X94.604 Y77.256 E.0169
G1 X93.137 Y75.789 E.06541
G1 X93.104 Y75.794 E.00105
G1 X93.104 Y76.293 E.01573
G1 X94.068 Y77.256 E.04296
G1 X93.531 Y77.256 E.01693
G1 X92.934 Y76.659 E.02662
M204 S1000
M106 S84.15
;LAYER_CHANGE
;Z:0.35
;HEIGHT:0.15
;BEFORE_LAYER_CHANGE
G92 E0.0
;0.35


;WIPE_START
G1 F8640
G1 X93.531 Y77.256 E-.19495
G1 X94.068 Y77.256 E-.12399
G1 X93.104 Y76.293 E-.31463
G1 X93.104 Y75.794 E-.11522
G1 X93.137 Y75.789 E-.00771
G1 X93.27 Y75.922 E-.0435
;WIPE_END
G1 Z.35 F720
;AFTER_LAYER_CHANGE
;0.35
M104 S210 ; set temperature
; stop printing object easy-battery-lid id:0 copy 0
G1 Z.75
G1 X89.789 Y76.659 F10800
G1 Z.35 F720
G1 E.8 F2100
;TYPE:Skirt/Brim
;WIDTH:0.42
G1 F3000
G1 X89.789 Y74.665 E.04822
G1 X89.939 Y73.868 E.01961
G1 X90.839 Y71.565 E.0598
G1 X91.658 Y70.545 E.03164
G1 X92.878 Y70.173 E.03085
G1 X157.278 Y70.173 E1.55751
G1 X158.526 Y70.564 E.03163
G1 X159.316 Y71.565 E.03084
G1 X160.216 Y73.868 E.0598
G1 X160.366 Y74.665 E.01961
G1 X160.366 Y90.664 E.38693
G1 X159.45 Y98.196 E.1835
G1 X158.908 Y99.387 E.03165
G1 X157.278 Y100.116 E.04318
G1 X92.878 Y100.116 E1.55751
G1 X91.629 Y99.725 E.03165
G1 X90.706 Y98.196 E.04319
G1 X89.789 Y90.664 E.18351
G1 X89.789 Y76.719 E.33726
;WIPE_START
G1 F8640
G1 X89.789 Y76.659 E-.01385
G1 X89.789 Y74.665 E-.46042
G1 X89.939 Y73.868 E-.18726
G1 X90.157 Y73.309 E-.13847
;WIPE_END
G1 Z.75 F720
; printing object easy-battery-lid id:0 copy 0
G1 X93.333 Y75.124 F10800
G1 Z.35 F720
G1 E.8 F2100
M204 S800
;TYPE:Perimeter
;WIDTH:0.449999
G1 F2374.078
G1 X93.348 Y75.112 E.0005
G1 F2397.066
G1 X93.459 Y74.952 E.00507
G1 F2403.024
G1 X93.52 Y74.681 E.00724
G1 F2392.715
G1 X93.52 Y73.007 E.04362
G1 F2700
G1 X156.635 Y73.007 E1.64451
G1 F2242.784
G1 X156.635 Y74.681 E.04362
G1 X156.655 Y74.839 E.00415
G1 F2246.854
G1 X156.743 Y75.032 E.00553
G1 F2259.35
G1 X156.942 Y75.22 E.00713
G1 F2279.495
G1 X157.262 Y75.307 E.00864
G1 F2307.07
G1 X157.535 Y75.307 E.00711
G1 F2344.989
G1 X157.535 Y75.581 E.00714
G1 F1200
G1 X157.535 Y78.383 E.07301
G1 F900
G1 X157.535 Y78.583 E.00521
M204 S1000
;TYPE:Overhang perimeter
G1 X157.535 Y79.683 E.02866
G1 X157.535 Y88.264 E.22358
G1 X92.62 Y88.264 E1.69141
G1 X92.62 Y79.683 E.22358
M73 P2 R52
G1 X92.62 Y78.583 E.02866
M204 S800
;TYPE:Perimeter
G1 X92.62 Y78.383 E.00521
G1 F1200
G1 X92.62 Y75.307 E.08015
G1 F2266.717
G1 X92.894 Y75.307 E.00714
G1 F2329.332
G1 X93.213 Y75.22 E.00862
G1 F2374.078
G1 X93.286 Y75.161 E.00245
M204 S1000
G1 X93.286 Y75.161 F10800
G1 X93.034 Y74.829
M204 S800
;TYPE:External perimeter
G1 F1500
G1 X93.045 Y74.824 E.00031
G1 X93.103 Y74.681 E.00402
G1 X93.103 Y72.589 E.05451
G1 X93.781 Y72.589 E.01767
G1 X156.375 Y72.589 E1.63093
G1 X157.053 Y72.589 E.01767
G1 X157.053 Y74.681 E.05451
G1 X157.11 Y74.824 E.00401
G1 X157.262 Y74.89 E.00432
G1 X157.953 Y74.89 E.018
G1 X157.953 Y75.581 E.018
G1 F1200
G1 X157.953 Y78.383 E.07301
G1 F900
G1 X157.953 Y78.583 E.00521
M204 S1000
;TYPE:Overhang perimeter
G1 X157.953 Y79.683 E.02866
G1 X157.953 Y88.681 E.23445
G1 X92.203 Y88.681 E1.71316
G1 X92.203 Y79.683 E.23445
M73 Q2 S52
G1 X92.203 Y78.583 E.02866
M204 S800
;TYPE:External perimeter
G1 X92.203 Y78.383 E.00521
G1 F1200
G1 X92.203 Y74.89 E.09101
G1 F1500
G1 X92.894 Y74.89 E.018
G1 X92.979 Y74.853 E.00242
M204 S1000
;WIPE_START
G1 F8640
G1 X93.034 Y74.829 E-.01386
G1 X93.045 Y74.824 E-.00279
G1 X93.103 Y74.681 E-.03563
G1 X93.103 Y72.589 E-.48305
G1 X93.781 Y72.589 E-.15655
G1 X94.249 Y72.589 E-.10812
;WIPE_END
G1 Z.75 F720
G1 X94.01 Y73.417 F10800
G1 Z.35 F720
G1 E.8 F2100
;TYPE:Solid infill
;WIDTH:0.55137
G1 F4800
G1 X93.964 Y73.371 E.00211
G1 X93.901 Y73.388 E.00211
G1 X93.884 Y73.451 E.00211
G1 X93.93 Y73.496 E.00208
G1 X93.993 Y73.48 E.0021
;WIDTH:0.449999
G1 X93.896 Y74.147 E.01756
G1 X94.66 Y73.383 E.02815
G1 X94.756 Y73.309 E.00316
;WIDTH:0.411095
G1 X94.851 Y73.235 E.00285
;WIDTH:0.37219
G1 X94.81 Y73.246 E.0009
G1 X94.791 Y73.175 E.00156
G1 X94.862 Y73.194 E.00156
;WIDTH:0.449999
G1 X95.251 Y73.383 E.01127
G1 X94.115 Y74.519 E.04186
G1 X94.402 Y74.823 E.01089
G1 X95.842 Y73.383 E.05306
G1 X96.433 Y73.383 E.0154
G1 X94.56 Y75.256 E.06902
G1 X94.586 Y75.821 E.01474
G1 X97.024 Y73.383 E.08984
G1 X97.615 Y73.383 E.0154
G1 X94.586 Y76.411 E.1116
G1 X94.558 Y76.602 E.00503
;WIDTH:0.411095
G1 X94.529 Y76.792 E.00454
;WIDTH:0.37219
G1 X94.487 Y76.803 E.00092
G1 X94.468 Y76.732 E.00156
G1 X94.54 Y76.751 E.00158
;WIDTH:0.449999
G1 X94.915 Y76.674 E.00997
G1 X98.206 Y73.383 E.12127
G1 X98.797 Y73.383 E.0154
G1 X95.506 Y76.674 E.12127
G1 X96.097 Y76.674 E.0154
G1 X99.387 Y73.383 E.12125
G1 X99.978 Y73.383 E.0154
G1 X96.688 Y76.674 E.12125
G1 X97.279 Y76.674 E.0154
G1 X100.569 Y73.383 E.12125
G1 X101.16 Y73.383 E.0154
G1 X97.869 Y76.674 E.12127
G1 X98.46 Y76.674 E.0154
G1 X101.751 Y73.383 E.12127
G1 X102.342 Y73.383 E.0154
G1 X99.051 Y76.674 E.12127
G1 X99.642 Y76.674 E.0154
G1 X102.933 Y73.383 E.12127
G1 X103.523 Y73.383 E.01537
G1 X100.233 Y76.674 E.12125
G1 X100.824 Y76.674 E.0154
G1 X104.114 Y73.383 E.12125
G1 X104.705 Y73.383 E.0154
G1 X101.415 Y76.674 E.12125
G1 X102.006 Y76.674 E.0154
G1 X105.296 Y73.383 E.12125
G1 X105.887 Y73.383 E.0154
G1 X102.596 Y76.674 E.12127
G1 X103.187 Y76.674 E.0154
G1 X106.478 Y73.383 E.12127
G1 X107.069 Y73.383 E.0154
G1 X103.778 Y76.674 E.12127
G1 X104.369 Y76.674 E.0154
G1 X107.66 Y73.383 E.12127
