; generated by PrusaSlicer 2.8.1+linux-x64-GTK3 on 2024-11-30 at 11:26:21 UTC


;
;
; 

; external perimeters extrusion width = 0.45mm
; perimeters extrusion width = 0.45mm
; infill extrusion width = 0.45mm
; solid infill extrusion width = 0.45mm
; top infill extrusion width = 0.40mm
; first layer extrusion width = 0.42mm

M73 P0 R36
M73 Q0 S36
M201 X1000 Y1000 Z200 E5000 ; sets maximum accelerations, mm/sec^2
M203 X200 Y200 Z12 E120 ; sets maximum feedrates, mm / sec
M204 S1250 T1250 ; sets acceleration (S) and retract acceleration (R), mm/sec^2
M205 X8.00 Y8.00 Z0.40 E4.50 ; sets the jerk limits, mm/sec
M205 S0 T0 ; sets the minimum extruding and travel feed rate, mm/sec

; printing object usb-support-2-round.stl id:0 copy 0
; stop printing object usb-support-2-round.stl id:0 copy 0

;TYPE:Custom
M862.3 P "MK3S" ; printer model check
M862.1 P0.4 ; nozzle diameter check
M115 U3.14.0 ; tell printer latest fw version
G90 ; use absolute coordinates
M83 ; extruder relative mode
M104 S215 ; set extruder temp
M140 S60 ; set bed temp
M190 S60 ; wait for bed temp
M109 S215 ; wait for extruder temp
G28 W ; home all without mesh bed level
G80 X95.1461 Y87.4638 W59.7079 H35.2901 ; mesh bed levelling

G1 Z0.2 F720
G1 Y-3 F1000 ; go outside print area
G92 E0
G1 X60 E9 F1000 ; intro line
G1 X100 E12.5 F1000 ; intro line

G92 E0
M221 S95

; Don't change E values below. Excessive value can damage the printer.
M907 E430 ; set extruder motor current
G21 ; set units to millimeters
G90 ; use absolute coordinates
M83 ; use relative distances for extrusion

M900 K0.05 ; Filament gcode LA 1.5
M900 K30 ; Filament gcode LA 1.0




M107
;LAYER_CHANGE
;Z:0.2
;HEIGHT:0.2
G1 E-.8 F2100
G1 Z.6 F720
G1 X95.725 Y98.352 F10800
G1 Z.2 F720
G1 E.8 F2100
M204 S800
;TYPE:Skirt/Brim
;WIDTH:0.42
G1 F1200
G1 X96.932 Y97.493 E.04645
G1 X131.529 Y87.78 E1.1267
G1 X132.625 Y87.654 E.03459
G1 X133.648 Y87.833 E.03256
G1 X134.607 Y88.337 E.03397
G1 X153.797 Y102.855 E.75448
G1 X154.557 Y103.919 E.041
G1 X154.665 Y104.6 E.02162
G1 X154.665 Y119.4 E.46404
G1 X154.522 Y120.179 E.02483
G1 X154.227 Y120.943 E.02568
G1 X153.977 Y121.385 E.01592
G1 X153.574 Y121.838 E.01901
G1 X153.189 Y122.124 E.01504
G1 X152.658 Y122.378 E.01846
G1 X151.55 Y122.565 E.03523
G1 X98.5 Y122.565 E1.66335
G1 X97.844 Y122.511 E.02064
G1 X97.261 Y122.348 E.01898
G1 X96.709 Y122.058 E.01955
G1 X96.263 Y121.679 E.01835
G1 X95.724 Y120.824 E.03169
G1 X95.478 Y120.179 E.02164
G1 X95.335 Y119.4 E.02483
G1 X95.335 Y99.6 E.62082
G1 X95.708 Y98.409 E.03913
M204 S1000
;WIPE_START
G1 F8640
G1 X95.725 Y98.352 E-.01373
G1 X96.932 Y97.493 E-.34207
G1 X98.784 Y96.973 E-.4442
;WIPE_END
G1 Z.6 F720
; printing object usb-support-2-round.stl id:0 copy 0
G1 X141.615 Y105.472 F10800
G1 Z.2 F720
G1 E.8 F2100
M204 S800
;TYPE:Perimeter
;WIDTH:0.419999
G1 F1200
G1 X141.67 Y105.542 E.00279
G1 X141.99 Y105.719 E.01147
G1 X142.279 Y105.764 E.00917
G1 X151.136 Y105.764 E.2777
G1 X151.136 Y112.4 E.20807
G1 X151.136 Y118.532 E.19226
G1 X150.95 Y118.627 E.00655
G1 X150.817 Y119.036 E.01348
G1 X99.185 Y119.036 E1.61888
G1 X99.05 Y118.627 E.0135
G1 X98.864 Y118.532 E.00655
G1 X98.864 Y100.764 E.5571
G1 X130.431 Y100.764 E.98976
M73 P0 R35
G1 X132.158 Y100.746 E.05415
M73 P1 R35
M73 Q1 S36
G1 X132.5 Y100.663 E.01103
G1 X132.639 Y100.716 E.00466
G1 X132.864 Y100.747 E.00712
G1 X134.073 Y100.763 E.03791
G1 X141.336 Y100.764 E.22773
G1 X141.346 Y104.961 E.13159
G1 X141.441 Y105.254 E.00966
G1 X141.578 Y105.425 E.00687
M204 S1000
G1 X141.578 Y105.425 F10800
G1 X141.891 Y105.214
M204 S800
G1 F1200
G1 X142.002 Y105.315 E.00471
G1 X142.279 Y105.387 E.00897
G1 X151.513 Y105.387 E.28953
G1 X151.513 Y112.4 E.21989
G1 X151.513 Y118.716 E.19803
G1 X151.255 Y118.848 E.00909
G1 X151.148 Y119.179 E.01091
G1 X151.148 Y119.413 E.00734
G1 X98.855 Y119.413 E1.63961
G1 X98.852 Y119.171 E.00759
G1 X98.745 Y118.848 E.01067
G1 X98.487 Y118.716 E.00909
G1 X98.487 Y100.387 E.57469
G1 X130.431 Y100.387 E1.00158
G1 X132.129 Y100.37 E.05324
G1 X132.385 Y100.306 E.00827
G1 X132.5 Y100.133 E.00651
G1 X132.615 Y100.306 E.00651
G1 X132.869 Y100.37 E.00821
G1 X134.073 Y100.386 E.03775
G1 X141.713 Y100.387 E.23955
G1 X141.713 Y104.821 E.13902
G1 X141.719 Y104.905 E.00264
G1 X141.814 Y105.144 E.00806
G1 X141.847 Y105.174 E.0014
M204 S1000
G1 X141.847 Y105.174 F10800
G1 X142.176 Y104.962
M204 S800
;TYPE:External perimeter
G1 F1200
G1 X142.279 Y105.01 E.00356
G1 X151.89 Y105.01 E.30135
G1 X151.89 Y112.4 E.23171
G1 X151.89 Y118.99 E.20662
M73 Q1 S35
G1 X151.714 Y118.99 E.00552
G1 X151.561 Y119.068 E.00538
G1 X151.525 Y119.179 E.00366
G1 X151.525 Y119.784 E.01897
G1 X99.096 Y119.79 E1.64387
G1 X98.482 Y119.774 E.01926
G1 X98.475 Y119.176 E.01875
G1 X98.439 Y119.068 E.00357
G1 X98.286 Y118.99 E.00538
G1 X98.11 Y118.99 E.00552
G1 X98.11 Y100.01 E.5951
G1 X130.431 Y100.01 E1.0134
G1 X132.171 Y99.987 E.05456
;WIDTH:0.421465
G1 X132.311 Y99.821 E.00684
G1 X132.317 Y90.761 E.28517
;WIDTH:0.409195
G1 X132.317 Y90.647 E.00347
G1 X132.417 Y90.583 E.00362
G1 X132.647 Y90.613 E.00706
G1 X132.683 Y90.761 E.00464
;WIDTH:0.419999
G1 X132.689 Y99.805 E.28357
G1 X132.79 Y99.971 E.00609
G1 X132.875 Y99.993 E.00275
G1 X134.07 Y100.009 E.03747
G1 X142.09 Y100.01 E.25146
G1 X142.09 Y104.821 E.15085
G1 X142.129 Y104.93 E.00363
M204 S1000
;WIPE_START
G1 F8640
G1 X142.176 Y104.962 E-.01313
G1 X142.279 Y105.01 E-.02624
G1 X145.573 Y105.01 E-.76063
;WIPE_END
G1 Z.6 F720
G1 X150.202 Y105.934 F10800
G1 Z.2 F720
G1 E.8 F2100
M204 S800
;TYPE:Solid infill
;WIDTH:0.420839
G1 F1200
G1 X150.796 Y106.528 E.0264
G1 X150.796 Y107.063 E.01681
G1 X149.837 Y106.104 E.04262
G1 X149.303 Y106.104 E.01678
G1 X150.796 Y107.597 E.06635
G1 X150.796 Y108.132 E.01681
G1 X148.768 Y106.104 E.09013
G1 X148.234 Y106.104 E.01678
G1 X150.796 Y108.666 E.11386
G1 X150.796 Y109.201 E.01681
G1 X147.699 Y106.104 E.13763
G1 X147.165 Y106.104 E.01678
G1 X150.796 Y109.735 E.16136
G1 X150.796 Y110.269 E.01678
G1 X146.63 Y106.104 E.18512
G1 X146.096 Y106.104 E.01678
G1 X150.796 Y110.804 E.20887
G1 X150.796 Y111.338 E.01678
G1 X145.562 Y106.104 E.2326
G1 X145.027 Y106.104 E.01681
G1 X150.796 Y111.873 E.25638
G1 X150.796 Y112.407 E.01678
G1 X144.493 Y106.104 E.28011
G1 X143.958 Y106.104 E.01681
G1 X150.796 Y112.942 E.30388
G1 X150.796 Y113.476 E.01678
G1 X143.424 Y106.104 E.32761
G1 X142.889 Y106.104 E.01681
M73 P2 R35
M73 Q2 S35
G1 X150.796 Y114.011 E.35139
G1 X150.796 Y114.545 E.01678
G1 X142.176 Y105.925 E.38308
M204 S1000
;WIPE_START
G1 F8640
G1 X144.626 Y108.375 E-.8
;WIPE_END
G1 Z.6 F720
G1 X141.168 Y101.71 F10800
G1 Z.2 F720
G1 E.8 F2100
M204 S800
G1 F1200
G1 X140.561 Y101.103 E.02698
G1 X140.027 Y101.103 E.01678
G1 X141 Y102.076 E.04324
G1 X141.002 Y102.612 E.01684
G1 X139.492 Y101.103 E.06708
G1 X138.958 Y101.103 E.01678
G1 X141.003 Y103.149 E.0909
G1 X141.005 Y103.685 E.01684
G1 X138.423 Y101.103 E.11475
G1 X137.889 Y101.103 E.01678
G1 X141.006 Y104.221 E.13854
G1 X141.008 Y104.757 E.01684
G1 X137.354 Y101.103 E.16239
G1 X136.82 Y101.103 E.01678
G1 X150.796 Y115.08 E.62112
G1 X150.796 Y115.614 E.01678
G1 X136.285 Y101.103 E.64487
G1 X135.751 Y101.103 E.01678
G1 X150.796 Y116.148 E.66861
G1 X150.796 Y116.683 E.01681
G1 X135.216 Y101.103 E.69238
G1 X134.682 Y101.103 E.01678
G1 X150.796 Y117.217 E.71611
G1 X150.796 Y117.752 E.01681
G1 X134.147 Y101.103 E.73989
G1 X133.606 Y101.096 E.017
G1 X150.796 Y118.286 E.76393
G1 X150.796 Y118.347 E.00192
G1 X150.672 Y118.411 E.00438
G1 X150.603 Y118.627 E.00713
G1 X133.064 Y101.089 E.77942
G1 X132.823 Y101.085 E.00757
G1 X132.471 Y101.03 E.0112
G1 X150.138 Y118.696 E.78511
G1 X149.603 Y118.696 E.01681
G1 X131.994 Y101.087 E.78255
G1 X131.465 Y101.093 E.01662
G1 X149.069 Y118.696 E.78231
G1 X148.534 Y118.696 E.01681
G1 X130.936 Y101.098 E.78206
G1 X130.407 Y101.103 E.01662
G1 X148 Y118.696 E.78184
G1 X147.465 Y118.696 E.01681
G1 X129.872 Y101.103 E.78184
G1 X129.338 Y101.103 E.01678
G1 X146.931 Y118.696 E.78184
G1 X146.396 Y118.696 E.01681
G1 X128.803 Y101.103 E.78184
G1 X128.269 Y101.103 E.01678
M73 P3 R35
M73 Q3 S35
G1 X145.862 Y118.696 E.78184
G1 X145.327 Y118.696 E.01681
G1 X127.735 Y101.103 E.78182
G1 X127.2 Y101.103 E.01681
G1 X144.793 Y118.696 E.78184
G1 X144.259 Y118.696 E.01678
G1 X126.666 Y101.103 E.78184
G1 X126.131 Y101.103 E.01681
G1 X143.724 Y118.696 E.78184
G1 X143.19 Y118.696 E.01678
G1 X125.597 Y101.103 E.78184
G1 X125.062 Y101.103 E.01681
G1 X142.655 Y118.696 E.78184
G1 X142.121 Y118.696 E.01678
G1 X124.528 Y101.103 E.78184
G1 X123.993 Y101.103 E.01681
G1 X141.586 Y118.696 E.78184
G1 X141.052 Y118.696 E.01678
G1 X123.459 Y101.103 E.78184
G1 X122.924 Y101.103 E.01681
G1 X140.517 Y118.696 E.78184
G1 X139.983 Y118.696 E.01678
M73 P3 R34
G1 X122.39 Y101.103 E.78184
G1 X121.855 Y101.103 E.01681
G1 X139.448 Y118.696 E.78184
G1 X138.914 Y118.696 E.01678
G1 X121.321 Y101.103 E.78184
G1 X120.787 Y101.103 E.01678
G1 X138.379 Y118.696 E.78182
G1 X137.845 Y118.696 E.01678
G1 X120.252 Y101.103 E.78184
G1 X119.718 Y101.103 E.01678
G1 X137.311 Y118.696 E.78184
G1 X136.776 Y118.696 E.01681
M73 P4 R34
M73 Q4 S35
G1 X119.183 Y101.103 E.78184
G1 X118.649 Y101.103 E.01678
G1 X136.242 Y118.696 E.78184
G1 X135.707 Y118.696 E.01681
G1 X118.114 Y101.103 E.78184
G1 X117.58 Y101.103 E.01678
M73 Q4 S34
G1 X135.173 Y118.696 E.78184
G1 X134.638 Y118.696 E.01681
G1 X117.045 Y101.103 E.78184
G1 X116.511 Y101.103 E.01678
G1 X134.104 Y118.696 E.78184
G1 X133.569 Y118.696 E.01681
G1 X115.976 Y101.103 E.78184
G1 X115.442 Y101.103 E.01678
G1 X133.035 Y118.696 E.78184
G1 X132.5 Y118.696 E.01681
G1 X114.908 Y101.103 E.78182
G1 X114.373 Y101.104 E.01681
G1 X131.966 Y118.696 E.78182
G1 X131.432 Y118.696 E.01678
G1 X113.839 Y101.104 E.78182
G1 X113.304 Y101.104 E.01681
G1 X130.897 Y118.696 E.78182
G1 X130.363 Y118.696 E.01678
G1 X112.77 Y101.104 E.78182
G1 X112.235 Y101.104 E.01681
G1 X129.828 Y118.696 E.78182
G1 X129.294 Y118.696 E.01678
G1 X111.701 Y101.104 E.78182
G1 X111.166 Y101.104 E.01681
G1 X128.759 Y118.696 E.78182
G1 X128.225 Y118.696 E.01678
G1 X110.632 Y101.104 E.78182
G1 X110.097 Y101.104 E.01681
M73 P5 R34
M73 Q5 S34
G1 X127.69 Y118.696 E.78182
G1 X127.156 Y118.696 E.01678
G1 X109.563 Y101.104 E.78182
G1 X109.029 Y101.104 E.01678
G1 X126.621 Y118.696 E.7818
G1 X126.087 Y118.696 E.01678
G1 X108.494 Y101.104 E.78182
G1 X107.96 Y101.104 E.01678
G1 X125.552 Y118.696 E.7818
G1 X125.018 Y118.696 E.01678
G1 X107.425 Y101.104 E.78182
G1 X106.891 Y101.104 E.01678
G1 X124.484 Y118.696 E.78182
G1 X123.949 Y118.696 E.01681
G1 X106.356 Y101.104 E.78182
G1 X105.822 Y101.104 E.01678
G1 X123.415 Y118.696 E.78182
G1 X122.88 Y118.696 E.01681
G1 X105.287 Y101.104 E.78182
G1 X104.753 Y101.104 E.01678
G1 X122.346 Y118.696 E.78182
G1 X121.811 Y118.696 E.01681
G1 X104.218 Y101.104 E.78182
G1 X103.684 Y101.104 E.01678
G1 X121.277 Y118.696 E.78182
G1 X120.742 Y118.696 E.01681
G1 X103.149 Y101.104 E.78182
G1 X102.615 Y101.104 E.01678
G1 X120.208 Y118.696 E.78182
G1 X119.673 Y118.696 E.01681
G1 X102.081 Y101.104 E.7818
G1 X101.546 Y101.104 E.01681
G1 X119.139 Y118.696 E.78182
G1 X118.605 Y118.696 E.01678
M73 P6 R34
M73 Q6 S34
G1 X101.012 Y101.104 E.78182
G1 X100.477 Y101.104 E.01681
G1 X118.07 Y118.696 E.78182
G1 X117.536 Y118.696 E.01678
G1 X99.943 Y101.104 E.78182
G1 X99.408 Y101.104 E.01681
G1 X117.001 Y118.696 E.78182
G1 X116.467 Y118.696 E.01678
G1 X99.204 Y101.433 E.76717
G1 X99.204 Y101.968 E.01681
G1 X115.932 Y118.696 E.7434
G1 X115.398 Y118.696 E.01678
G1 X99.204 Y102.502 E.71967
G1 X99.204 Y103.037 E.01681
M73 P6 R33
G1 X114.863 Y118.696 E.69589
G1 X114.329 Y118.696 E.01678
G1 X99.204 Y103.571 E.67216
G1 X99.204 Y104.106 E.01681
G1 X113.794 Y118.696 E.64839
G1 X113.26 Y118.696 E.01678
G1 X99.204 Y104.64 E.62465
G1 X99.204 Y105.175 E.01681
G1 X112.725 Y118.696 E.60088
G1 X112.191 Y118.696 E.01678
G1 X99.204 Y105.709 E.57715
G1 X99.204 Y106.243 E.01678
G1 X111.657 Y118.696 E.55342
G1 X111.122 Y118.696 E.01681
G1 X99.204 Y106.778 E.52964
G1 X99.204 Y107.312 E.01678
G1 X110.588 Y118.696 E.50591
G1 X110.053 Y118.696 E.01681
G1 X99.204 Y107.847 E.48213
G1 X99.204 Y108.381 E.01678
G1 X109.519 Y118.696 E.4584
G1 X108.984 Y118.696 E.01681
G1 X99.204 Y108.916 E.43463
G1 X99.204 Y109.45 E.01678
M73 Q6 S33
G1 X108.45 Y118.696 E.4109
G1 X107.915 Y118.696 E.01681
M73 P7 R33
G1 X99.204 Y109.985 E.38712
G1 X99.204 Y110.519 E.01678
M73 Q7 S33
G1 X107.381 Y118.696 E.36339
G1 X106.846 Y118.696 E.01681
G1 X99.204 Y111.054 E.33961
G1 X99.204 Y111.588 E.01678
G1 X106.312 Y118.696 E.31588
G1 X105.778 Y118.696 E.01678
G1 X99.204 Y112.122 E.29215
G1 X99.204 Y112.657 E.01681
G1 X105.243 Y118.696 E.26838
G1 X104.709 Y118.696 E.01678
G1 X99.204 Y113.191 E.24464
G1 X99.204 Y113.726 E.01681
G1 X104.174 Y118.696 E.22087
G1 X103.64 Y118.696 E.01678
G1 X99.204 Y114.26 E.19714
G1 X99.204 Y114.795 E.01681
G1 X103.105 Y118.696 E.17336
G1 X102.571 Y118.696 E.01678
G1 X99.204 Y115.329 E.14963
G1 X99.204 Y115.864 E.01681
G1 X102.036 Y118.696 E.12586
G1 X101.502 Y118.696 E.01678
G1 X99.204 Y116.398 E.10212
G1 X99.204 Y116.933 E.01681
G1 X100.967 Y118.696 E.07835
G1 X100.433 Y118.696 E.01678
G1 X99.204 Y117.467 E.05462
G1 X99.204 Y118.002 E.01681
G1 X100.068 Y118.866 E.0384
M204 S1000
M106 S84.15
;LAYER_CHANGE
;Z:0.3
;HEIGHT:0.1
;BEFORE_LAYER_CHANGE
G92 E0.0
;0.3


;WIPE_START
G1 F8640
G1 X99.204 Y118.002 E-.28214
G1 X99.204 Y117.467 E-.12353
G1 X100.412 Y118.675 E-.39433
;WIPE_END
G1 Z.3 F720
;AFTER_LAYER_CHANGE
;0.3
M104 S210 ; set temperature
; stop printing object usb-support-2-round.stl id:0 copy 0
G1 Z.7
G1 X100.068 Y122.565 F10800
G1 Z.3 F720
G1 E.8 F2100
;TYPE:Skirt/Brim
;WIDTH:0.42
G1 F3000
G1 X98.5 Y122.565 E.02598
G1 X97.844 Y122.511 E.01091
G1 X97.261 Y122.348 E.01003
G1 X96.709 Y122.058 E.01033
G1 X96.263 Y121.679 E.0097
G1 X95.724 Y120.824 E.01675
G1 X95.478 Y120.179 E.01144
G1 X95.335 Y119.4 E.01312
G1 X95.335 Y99.6 E.32807
G1 X95.725 Y98.352 E.02166
G1 X96.932 Y97.493 E.02455
G1 X131.529 Y87.78 E.59541
G1 X132.625 Y87.654 E.01828
G1 X133.648 Y87.833 E.01721
G1 X134.607 Y88.337 E.01795
G1 X153.797 Y102.855 E.39871
G1 X154.557 Y103.919 E.02167
G1 X154.665 Y104.6 E.01142
G1 X154.665 Y119.4 E.24523
G1 X154.522 Y120.179 E.01312
G1 X154.227 Y120.943 E.01357
G1 X153.977 Y121.385 E.00841
G1 X153.574 Y121.838 E.01005
G1 X153.189 Y122.124 E.00795
G1 X152.658 Y122.378 E.00975
G1 X151.55 Y122.565 E.01862
G1 X100.128 Y122.565 E.85203
;WIPE_START
G1 F8640
G1 X100.068 Y122.565 E-.01385
G1 X98.5 Y122.565 E-.36206
G1 X97.844 Y122.511 E-.15198
G1 X97.261 Y122.348 E-.13978
G1 X96.754 Y122.082 E-.13233
;WIPE_END
G1 Z.7 F720
; printing object usb-support-2-round.stl id:0 copy 0
G1 X141.74 Y105.359 F10800
G1 Z.3 F720
G1 E.8 F2100
M204 S600
;TYPE:Perimeter
;WIDTH:0.449999
G1 F2181.662
G1 X141.808 Y105.437 E.00184
G1 F2209.277
G1 X142.167 Y105.633 E.00729
G1 F2234.352
G1 X142.489 Y105.682 E.0058
G1 F2700
G1 X151.351 Y105.682 E.15789
G1 F1574.038
G1 X151.351 Y118.771 E.2332
G1 F1401.198
G1 X151.231 Y118.839 E.00246
G1 X151.116 Y119.251 E.00762
G1 F2700
G1 X98.884 Y119.251 E.9306
G1 F1398.516
G1 X98.769 Y118.839 E.00762
G1 X98.649 Y118.771 E.00246
G1 F1661.917
G1 X98.649 Y100.682 E.32228
G1 F2263.365
G1 X131.61 Y100.682 E.58725
G1 F1896.863
G1 X131.792 Y100.667 E.00325
G1 F1726.468
G1 X132.163 Y100.528 E.00706
G1 F1489.606
G1 X132.435 Y100.295 E.00638
G1 F1434.44
G1 X132.5 Y100.136 E.00306
G1 F1426.191
G1 X132.565 Y100.295 E.00306
G1 F1447.791
G1 X132.837 Y100.528 E.00638
G1 F1468.621
G1 X133.081 Y100.637 E.00476
G1 F1481.416
G1 X133.39 Y100.682 E.00556
G1 F2700
G1 X141.418 Y100.682 E.14303
G1 F2121.123
G1 X141.418 Y104.611 E.07
G1 F2134.476
G1 X141.456 Y104.892 E.00505
G1 F2156.733
G1 X141.572 Y105.165 E.00528
G1 F2181.662
G1 X141.701 Y105.314 E.00351
M204 S1000
G1 X141.701 Y105.314 F10800
G1 X142.043 Y105.059
M204 S600
G1 F2072.309
G1 X142.236 Y105.202 E.00428
G1 F2104.981
G1 X142.489 Y105.254 E.0046
G1 F2700
G1 X151.779 Y105.254 E.16552
G1 F1447.698
G1 X151.779 Y118.957 E.24414
G1 F1300.636
G1 X151.599 Y119.059 E.00369
G1 F1307.725
G1 X151.508 Y119.385 E.00603
G1 F1313.97
G1 X151.506 Y119.673 E.00513
G1 F1317.928
