; generated by PrusaSlicer 2.8.1+linux-x64-GTK3 on 2024-11-30 at 11:27:16 UTC


;
;
; 

; external perimeters extrusion width = 0.45mm
; perimeters extrusion width = 0.45mm
; infill extrusion width = 0.45mm
; solid infill extrusion width = 0.45mm
; top infill extrusion width = 0.40mm
; first layer extrusion width = 0.42mm

M73 P0 R27
M73 Q0 S28
M201 X1000 Y1000 Z200 E5000 ; sets maximum accelerations, mm/sec^2
M203 X200 Y200 Z12 E120 ; sets maximum feedrates, mm / sec
M204 S1250 T1250 ; sets acceleration (S) and retract acceleration (R), mm/sec^2
M205 X8.00 Y8.00 Z0.40 E4.50 ; sets the jerk limits, mm/sec
M205 S0 T0 ; sets the minimum extruding and travel feed rate, mm/sec

; printing object usb-support-2-round.stl id:0 copy 0
; stop printing object usb-support-2-round.stl id:0 copy 0

;TYPE:Custom
M862.3 P "MK3S" ; printer model check
M862.1 P0.4 ; nozzle diameter check
M115 U3.14.0 ; tell printer latest fw version
G90 ; use absolute coordinates
M83 ; extruder relative mode
M104 S215 ; set extruder temp
M140 S60 ; set bed temp
M190 S60 ; wait for bed temp
M109 S215 ; wait for extruder temp
G28 W ; home all without mesh bed level
G80 X95.1286 Y87.4055 W59.7428 H35.3659 ; mesh bed levelling

G1 Z0.2 F720
G1 Y-3 F1000 ; go outside print area
G92 E0
G1 X60 E9 F1000 ; intro line
G1 X100 E12.5 F1000 ; intro line

G92 E0
M221 S95

; Don't change E values below. Excessive value can damage the printer.
M907 E430 ; set extruder motor current
G21 ; set units to millimeters
G90 ; use absolute coordinates
M83 ; use relative distances for extrusion

M900 K0.05 ; Filament gcode LA 1.5
M900 K30 ; Filament gcode LA 1.0




M107
;LAYER_CHANGE
;Z:0.2
;HEIGHT:0.2
G1 E-.8 F2100
G1 Z.6 F720
G1 X95.708 Y98.352 F10800
G1 Z.2 F720
M73 Q0 S27
G1 E.8 F2100
M204 S800
;TYPE:Skirt/Brim
;WIDTH:0.42
G1 F1200
G1 X96.911 Y97.494 E.04633
G1 X131.443 Y87.737 E1.12512
G1 X132.605 Y87.595 E.0367
G1 X133.785 Y87.811 E.03761
G1 X134.664 Y88.285 E.03131
G1 X153.819 Y102.858 E.75465
G1 X154.576 Y103.925 E.04102
G1 X154.683 Y104.6 E.02143
G1 X154.683 Y119.4 E.46404
G1 X154.583 Y120.055 E.02078
G1 X154.312 Y120.886 E.02741
G1 X154.089 Y121.313 E.0151
G1 X153.719 Y121.768 E.01839
G1 X153.266 Y122.126 E.0181
G1 X152.752 Y122.381 E.01799
G1 X152.203 Y122.529 E.01783
G1 X151.594 Y122.582 E.01917
G1 X98.5 Y122.583 E1.66473
G1 X97.807 Y122.531 E.02179
G1 X97.171 Y122.351 E.02072
G1 X96.627 Y122.055 E.01942
G1 X96.183 Y121.667 E.01849
G1 X95.683 Y120.873 E.02942
G1 X95.417 Y120.055 E.02697
G1 X95.317 Y119.4 E.02078
G1 X95.317 Y99.6 E.62082
G1 X95.69 Y98.409 E.03913
M204 S1000
;WIPE_START
G1 F8640
G1 X95.708 Y98.352 E-.0138
G1 X96.911 Y97.494 E-.34119
G1 X98.766 Y96.97 E-.44501
;WIPE_END
G1 Z.6 F720
; printing object usb-support-2-round.stl id:0 copy 0
G1 X141.891 Y105.214 F10800
G1 Z.2 F720
G1 E.8 F2100
M204 S800
;TYPE:Perimeter
;WIDTH:0.419999
G1 F1200
G1 X142.002 Y105.315 E.00471
G1 X142.279 Y105.387 E.00897
G1 X151.513 Y105.387 E.28953
G1 X151.513 Y112.4 E.21989
M73 Q1 S27
G1 X151.513 Y118.716 E.19803
M73 P1 R27
G1 X151.255 Y118.848 E.00909
G1 X151.148 Y119.179 E.01091
G1 X151.148 Y119.413 E.00734
G1 X98.855 Y119.413 E1.63961
G1 X98.852 Y119.171 E.00759
G1 X98.745 Y118.848 E.01067
G1 X98.487 Y118.716 E.00909
G1 X98.487 Y100.387 E.57469
G1 X130.431 Y100.387 E1.00158
G1 X132.129 Y100.37 E.05324
G1 X132.385 Y100.306 E.00827
G1 X132.5 Y100.133 E.00651
G1 X132.615 Y100.306 E.00651
G1 X132.869 Y100.37 E.00821
G1 X134.073 Y100.386 E.03775
G1 X141.713 Y100.387 E.23955
G1 X141.713 Y104.821 E.13902
G1 X141.719 Y104.905 E.00264
G1 X141.814 Y105.144 E.00806
G1 X141.847 Y105.174 E.0014
M204 S1000
G1 X141.847 Y105.174 F10800
G1 X142.176 Y104.962
M204 S800
;TYPE:External perimeter
G1 F1200
G1 X142.279 Y105.01 E.00356
G1 X151.89 Y105.01 E.30135
G1 X151.89 Y112.4 E.23171
G1 X151.89 Y118.99 E.20662
G1 X151.714 Y118.99 E.00552
G1 X151.561 Y119.068 E.00538
G1 X151.525 Y119.179 E.00366
G1 X151.525 Y119.784 E.01897
G1 X99.096 Y119.79 E1.64387
G1 X98.482 Y119.774 E.01926
G1 X98.475 Y119.176 E.01875
G1 X98.439 Y119.068 E.00357
G1 X98.286 Y118.99 E.00538
G1 X98.11 Y118.99 E.00552
G1 X98.11 Y100.01 E.5951
G1 X130.431 Y100.01 E1.0134
G1 X132.171 Y99.987 E.05456
;WIDTH:0.421465
G1 X132.311 Y99.821 E.00684
G1 X132.317 Y90.761 E.28517
;WIDTH:0.409195
G1 X132.317 Y90.647 E.00347
G1 X132.417 Y90.583 E.00362
G1 X132.647 Y90.613 E.00706
G1 X132.683 Y90.761 E.00464
;WIDTH:0.419999
G1 X132.689 Y99.805 E.28357
G1 X132.79 Y99.971 E.00609
G1 X132.875 Y99.993 E.00275
G1 X134.07 Y100.009 E.03747
G1 X142.09 Y100.01 E.25146
G1 X142.09 Y104.821 E.15085
G1 X142.129 Y104.93 E.00363
M204 S1000
;WIPE_START
G1 F8640
G1 X142.176 Y104.962 E-.01313
G1 X142.279 Y105.01 E-.02624
G1 X145.573 Y105.01 E-.76063
;WIPE_END
G1 Z.6 F720
G1 X150.575 Y105.557 F10800
G1 Z.2 F720
G1 E.8 F2100
M204 S800
;TYPE:Solid infill
;WIDTH:0.422659
G1 F1200
G1 X151.173 Y106.155 E.0267
G1 X151.173 Y106.692 E.01696
G1 X150.208 Y105.726 E.04311
G1 X149.671 Y105.726 E.01696
G1 X151.173 Y107.229 E.06709
G1 X151.173 Y107.766 E.01696
G1 X149.134 Y105.726 E.09107
G1 X148.597 Y105.726 E.01696
G1 X151.173 Y108.303 E.11505
G1 X151.173 Y108.84 E.01696
G1 X148.06 Y105.726 E.13903
G1 X147.523 Y105.726 E.01696
M73 Q2 S27
G1 X151.173 Y109.377 E.16301
G1 X151.173 Y109.914 E.01696
M73 P2 R27
G1 X146.986 Y105.726 E.18699
G1 X146.449 Y105.726 E.01696
G1 X151.173 Y110.451 E.21097
G1 X151.173 Y110.988 E.01696
G1 X145.912 Y105.726 E.23495
G1 X145.375 Y105.726 E.01696
G1 X151.173 Y111.525 E.25893
G1 X151.173 Y112.062 E.01696
G1 X144.838 Y105.726 E.28291
G1 X144.301 Y105.726 E.01696
G1 X151.173 Y112.599 E.30689
G1 X151.173 Y113.136 E.01696
G1 X143.764 Y105.726 E.33087
G1 X143.226 Y105.726 E.01699
G1 X151.173 Y113.673 E.35487
G1 X151.173 Y114.21 E.01696
G1 X142.52 Y105.557 E.38639
M204 S1000
;WIPE_START
G1 F8640
G1 X144.97 Y108.007 E-.8
;WIPE_END
G1 Z.6 F720
G1 X141.545 Y101.36 F10800
G1 Z.2 F720
G1 E.8 F2100
M204 S800
G1 F1200
G1 X140.911 Y100.726 E.02831
G1 X140.374 Y100.726 E.01696
G1 X141.376 Y101.728 E.04474
G1 X141.377 Y102.266 E.01699
G1 X139.837 Y100.726 E.06877
G1 X139.3 Y100.726 E.01696
G1 X141.378 Y102.804 E.09279
G1 X141.379 Y103.342 E.01699
G1 X138.763 Y100.726 E.11682
G1 X138.226 Y100.726 E.01696
G1 X141.38 Y103.88 E.14084
G1 X141.381 Y104.418 E.01699
G1 X137.689 Y100.726 E.16486
G1 X137.152 Y100.726 E.01696
G1 X141.383 Y104.957 E.18893
G1 X141.439 Y105.163 E.00674
G1 X141.579 Y105.399 E.00866
G1 X141.762 Y105.566 E.00782
G1 X142.002 Y105.685 E.00846
G1 X142.131 Y105.705 E.00412
G1 X151.173 Y114.748 E.40379
G1 X151.173 Y115.285 E.01696
G1 X136.615 Y100.726 E.6501
G1 X136.078 Y100.726 E.01696
G1 X151.173 Y115.822 E.67408
G1 X151.173 Y116.359 E.01696
G1 X135.541 Y100.726 E.69806
G1 X135.003 Y100.726 E.01699
G1 X151.173 Y116.896 E.72206
G1 X151.173 Y117.433 E.01696
G1 X134.466 Y100.726 E.74604
G1 X133.927 Y100.724 E.01702
G1 X151.173 Y117.97 E.77011
G1 X151.173 Y118.507 E.01696
G1 X133.382 Y100.716 E.79445
G1 X132.838 Y100.708 E.01718
G1 X150.925 Y118.795 E.80766
G1 X150.835 Y119.073 E.00923
M73 P3 R27
M73 Q3 S27
G1 X150.666 Y119.073 E.00534
G1 X132.284 Y100.691 E.82084
G1 X132.171 Y100.708 E.00361
G1 X131.768 Y100.713 E.01273
G1 X150.129 Y119.073 E.81988
G1 X149.592 Y119.073 E.01696
G1 X131.237 Y100.718 E.81963
G1 X130.705 Y100.724 E.0168
G1 X149.055 Y119.073 E.81939
G1 X148.518 Y119.073 E.01696
G1 X130.171 Y100.726 E.81927
G1 X129.634 Y100.726 E.01696
M73 P3 R26
G1 X147.981 Y119.073 E.81927
G1 X147.444 Y119.073 E.01696
G1 X129.097 Y100.726 E.81927
G1 X128.56 Y100.726 E.01696
G1 X146.907 Y119.073 E.81927
G1 X146.37 Y119.073 E.01696
G1 X128.023 Y100.726 E.81927
G1 X127.486 Y100.726 E.01696
G1 X145.833 Y119.073 E.81927
G1 X145.296 Y119.073 E.01696
G1 X126.949 Y100.726 E.81927
G1 X126.412 Y100.726 E.01696
G1 X144.759 Y119.073 E.81927
G1 X144.222 Y119.073 E.01696
M73 Q3 S26
G1 X125.875 Y100.726 E.81927
G1 X125.338 Y100.726 E.01696
M73 P4 R26
M73 Q4 S26
G1 X143.685 Y119.073 E.81927
G1 X143.148 Y119.073 E.01696
G1 X124.801 Y100.726 E.81927
G1 X124.264 Y100.726 E.01696
G1 X142.611 Y119.073 E.81927
G1 X142.074 Y119.073 E.01696
G1 X123.727 Y100.726 E.81927
G1 X123.19 Y100.726 E.01696
G1 X141.537 Y119.073 E.81927
G1 X141 Y119.073 E.01696
G1 X122.652 Y100.726 E.8193
G1 X122.115 Y100.726 E.01696
G1 X140.463 Y119.073 E.8193
G1 X139.925 Y119.073 E.01699
G1 X121.578 Y100.726 E.81927
G1 X121.041 Y100.726 E.01696
G1 X139.388 Y119.073 E.81927
G1 X138.851 Y119.073 E.01696
G1 X120.504 Y100.726 E.81927
G1 X119.967 Y100.726 E.01696
G1 X138.314 Y119.073 E.81927
G1 X137.777 Y119.073 E.01696
G1 X119.43 Y100.726 E.81927
G1 X118.893 Y100.726 E.01696
M73 P5 R26
M73 Q5 S26
G1 X137.24 Y119.073 E.81927
G1 X136.703 Y119.073 E.01696
G1 X118.356 Y100.726 E.81927
G1 X117.819 Y100.726 E.01696
G1 X136.166 Y119.073 E.81927
G1 X135.629 Y119.073 E.01696
G1 X117.282 Y100.726 E.81927
G1 X116.745 Y100.726 E.01696
G1 X135.092 Y119.073 E.81927
G1 X134.555 Y119.073 E.01696
G1 X116.208 Y100.726 E.81927
G1 X115.671 Y100.726 E.01696
G1 X134.018 Y119.073 E.81927
G1 X133.481 Y119.073 E.01696
G1 X115.134 Y100.726 E.81927
G1 X114.597 Y100.726 E.01696
G1 X132.944 Y119.073 E.81927
G1 X132.407 Y119.073 E.01696
G1 X114.06 Y100.726 E.81927
G1 X113.523 Y100.726 E.01696
G1 X131.87 Y119.073 E.81927
G1 X131.333 Y119.073 E.01696
G1 X112.986 Y100.726 E.81927
G1 X112.449 Y100.726 E.01696
G1 X130.796 Y119.073 E.81927
G1 X130.259 Y119.073 E.01696
M73 P6 R26
M73 Q6 S26
G1 X111.912 Y100.726 E.81927
G1 X111.375 Y100.726 E.01696
G1 X129.722 Y119.073 E.81927
G1 X129.185 Y119.073 E.01696
G1 X110.838 Y100.726 E.81927
G1 X110.301 Y100.726 E.01696
G1 X128.648 Y119.073 E.81927
G1 X128.111 Y119.073 E.01696
G1 X109.764 Y100.726 E.81927
G1 X109.227 Y100.726 E.01696
G1 X127.574 Y119.073 E.81927
G1 X127.037 Y119.073 E.01696
G1 X108.69 Y100.726 E.81927
G1 X108.153 Y100.726 E.01696
G1 X126.5 Y119.073 E.81927
G1 X125.963 Y119.073 E.01696
G1 X107.616 Y100.726 E.81927
G1 X107.079 Y100.726 E.01696
G1 X125.426 Y119.073 E.81927
G1 X124.889 Y119.073 E.01696
G1 X106.542 Y100.726 E.81927
G1 X106.005 Y100.726 E.01696
G1 X124.352 Y119.073 E.81927
G1 X123.815 Y119.073 E.01696
M73 P6 R25
G1 X105.467 Y100.726 E.8193
G1 X104.93 Y100.726 E.01696
M73 P7 R25
M73 Q7 S26
G1 X123.277 Y119.073 E.81927
G1 X122.74 Y119.073 E.01696
G1 X104.393 Y100.726 E.81927
G1 X103.856 Y100.726 E.01696
G1 X122.203 Y119.073 E.81927
G1 X121.666 Y119.073 E.01696
G1 X103.319 Y100.726 E.81927
G1 X102.782 Y100.726 E.01696
G1 X121.129 Y119.073 E.81927
G1 X120.592 Y119.073 E.01696
G1 X102.245 Y100.726 E.81927
G1 X101.708 Y100.726 E.01696
M73 Q7 S25
G1 X120.055 Y119.073 E.81927
G1 X119.518 Y119.073 E.01696
G1 X101.171 Y100.726 E.81927
G1 X100.634 Y100.726 E.01696
G1 X118.981 Y119.073 E.81927
G1 X118.444 Y119.073 E.01696
G1 X100.097 Y100.726 E.81927
G1 X99.56 Y100.726 E.01696
G1 X117.907 Y119.073 E.81927
G1 X117.37 Y119.073 E.01696
G1 X99.023 Y100.726 E.81927
G1 X98.827 Y100.726 E.00619
M73 P8 R25
M73 Q8 S25
G1 X98.827 Y101.067 E.01077
G1 X116.833 Y119.073 E.80405
G1 X116.296 Y119.073 E.01696
G1 X98.827 Y101.604 E.78007
G1 X98.827 Y102.141 E.01696
G1 X115.759 Y119.073 E.75609
G1 X115.222 Y119.073 E.01696
G1 X98.827 Y102.678 E.73211
G1 X98.827 Y103.215 E.01696
G1 X114.685 Y119.073 E.70813
G1 X114.148 Y119.073 E.01696
G1 X98.827 Y103.752 E.68415
G1 X98.827 Y104.289 E.01696
G1 X113.611 Y119.073 E.66017
G1 X113.074 Y119.073 E.01696
G1 X98.827 Y104.826 E.63619
G1 X98.827 Y105.363 E.01696
G1 X112.537 Y119.073 E.61221
G1 X112 Y119.073 E.01696
G1 X98.827 Y105.9 E.58823
G1 X98.827 Y106.437 E.01696
G1 X111.463 Y119.073 E.56425
G1 X110.926 Y119.073 E.01696
G1 X98.827 Y106.974 E.54027
G1 X98.827 Y107.511 E.01696
G1 X110.389 Y119.073 E.51629
G1 X109.852 Y119.073 E.01696
G1 X98.827 Y108.048 E.49231
G1 X98.827 Y108.585 E.01696
G1 X109.315 Y119.073 E.46834
G1 X108.778 Y119.073 E.01696
G1 X98.827 Y109.122 E.44436
G1 X98.827 Y109.659 E.01696
M73 P9 R25
G1 X108.241 Y119.073 E.42038
G1 X107.704 Y119.073 E.01696
M73 Q9 S25
G1 X98.827 Y110.196 E.3964
G1 X98.827 Y110.733 E.01696
G1 X107.167 Y119.073 E.37242
G1 X106.629 Y119.073 E.01699
G1 X98.827 Y111.271 E.34839
G1 X98.827 Y111.808 E.01696
G1 X106.092 Y119.073 E.32441
G1 X105.555 Y119.073 E.01696
G1 X98.827 Y112.345 E.30043
G1 X98.827 Y112.882 E.01696
G1 X105.018 Y119.073 E.27646
G1 X104.481 Y119.073 E.01696
G1 X98.827 Y113.419 E.25248
G1 X98.827 Y113.956 E.01696
G1 X103.944 Y119.073 E.2285
G1 X103.407 Y119.073 E.01696
G1 X98.827 Y114.493 E.20452
G1 X98.827 Y115.03 E.01696
G1 X102.87 Y119.073 E.18054
G1 X102.333 Y119.073 E.01696
G1 X98.827 Y115.567 E.15656
G1 X98.827 Y116.104 E.01696
G1 X101.796 Y119.073 E.13258
G1 X101.259 Y119.073 E.01696
G1 X98.827 Y116.641 E.1086
G1 X98.827 Y117.178 E.01696
G1 X100.722 Y119.073 E.08462
G1 X100.185 Y119.073 E.01696
G1 X98.827 Y117.715 E.06064
G1 X98.827 Y118.252 E.01696
G1 X99.818 Y119.243 E.04425
M204 S1000
M106 S84.15
;LAYER_CHANGE
;Z:0.35
;HEIGHT:0.15
;BEFORE_LAYER_CHANGE
G92 E0.0
;0.35


;WIPE_START
G1 F8640
G1 X98.827 Y118.252 E-.32361
G1 X98.827 Y117.715 E-.12399
G1 X99.906 Y118.795 E-.3524
;WIPE_END
G1 Z.35 F720
;AFTER_LAYER_CHANGE
;0.35
M104 S210 ; set temperature
; stop printing object usb-support-2-round.stl id:0 copy 0
G1 Z.75
G1 X99.818 Y122.583 F10800
G1 Z.35 F720
G1 E.8 F2100
;TYPE:Skirt/Brim
;WIDTH:0.42
G1 F3000
G1 X98.5 Y122.583 E.03188
G1 X97.807 Y122.531 E.01681
G1 X97.171 Y122.351 E.01599
G1 X96.627 Y122.055 E.01498
G1 X96.183 Y121.667 E.01426
G1 X95.683 Y120.873 E.02269
G1 X95.417 Y120.055 E.0208
G1 X95.317 Y119.4 E.01602
G1 X95.317 Y99.6 E.47886
G1 X95.708 Y98.352 E.03163
G1 X96.911 Y97.494 E.03574
G1 X131.443 Y87.737 E.86785
G1 X132.605 Y87.595 E.02831
G1 X133.785 Y87.811 E.02901
G1 X134.664 Y88.285 E.02415
G1 X153.819 Y102.858 E.58209
G1 X154.576 Y103.925 E.03164
G1 X154.683 Y104.6 E.01653
G1 X154.683 Y119.4 E.35794
G1 X154.583 Y120.055 E.01602
G1 X154.312 Y120.886 E.02114
G1 X154.089 Y121.313 E.01165
G1 X153.719 Y121.768 E.01418
G1 X153.266 Y122.126 E.01396
G1 X152.752 Y122.381 E.01388
G1 X152.203 Y122.529 E.01375
G1 X151.594 Y122.582 E.01478
G1 X99.878 Y122.583 E1.25075
;WIPE_START
G1 F8640
G1 X99.818 Y122.583 E-.01385
G1 X98.5 Y122.583 E-.30433
G1 X97.807 Y122.531 E-.16047
G1 X97.171 Y122.351 E-.15262
G1 X96.627 Y122.055 E-.143
G1 X96.543 Y121.982 E-.02573
;WIPE_END
G1 Z.75 F720
; printing object usb-support-2-round.stl id:0 copy 0
G1 X142.048 Y105.053 F10800
G1 Z.35 F720
G1 E.8 F2100
M204 S800
;TYPE:Perimeter
;WIDTH:0.449999
G1 F2307.261
G1 X142.237 Y105.192 E.00611
G1 F2327.146
G1 X142.484 Y105.243 E.00657
G1 F2700
G1 X151.804 Y105.243 E.24284
G1 F1742.883
G1 X151.804 Y118.969 E.35764
G1 F1474.672
G1 X151.631 Y119.069 E.00521
G1 F1469.811
G1 X151.546 Y119.375 E.00827
G1 F1471.456
G1 X151.541 Y119.694 E.00831
G1 F1477.795
G1 X151.462 Y119.704 E.00207
G1 F2700
G1 X99.473 Y119.704 E1.35461
G1 F1646.44
G1 X98.456 Y119.691 E.0265
G1 F1457.913
G1 X98.454 Y119.38 E.0081
G1 F1453.927
G1 X98.369 Y119.069 E.0084
G1 F1448.966
G1 X98.196 Y118.969 E.00521
G1 F1818.675
G1 X98.196 Y100.243 E.48792
G1 F2347.405
G1 X131.575 Y100.243 E.86971
G1 F2700
G1 X131.816 Y100.194 E.00641
G1 X132.065 Y100.007 E.00811
;WIDTH:0.49482
G1 X132.155 Y99.812 E.0062
;WIDTH:0.53964
G1 X132.246 Y99.616 E.00684
G1 X132.246 Y98.865 E.02377
G1 F2688.015
G1 X132.248 Y91.61 E.22959
G1 F1532.612
G1 X132.248 Y90.861 E.0237
;WIDTH:0.536387
G1 F1446.986
G1 X132.248 Y90.672 E.00594
G1 F1436.25
G1 X132.48 Y90.609 E.00756
G1 X132.752 Y90.665 E.00873
G1 F1440.19
G1 X132.752 Y90.861 E.00616
;WIDTH:0.53964
G1 F1498.287
G1 X132.752 Y91.61 E.0237
G1 F2684.449
G1 X132.754 Y98.865 E.22959
G1 F2700
G1 X132.754 Y99.616 E.02377
G1 X132.845 Y99.812 E.00684
;WIDTH:0.49482
G1 X132.935 Y100.007 E.0062
;WIDTH:0.449999
G1 X133.184 Y100.194 E.00811
G1 X133.425 Y100.243 E.00641
G1 X141.857 Y100.243 E.2197
G1 F2248.328
G1 X141.857 Y104.616 E.11394
G1 F2263.468
G1 X141.879 Y104.781 E.00434
G1 F2282.646
G1 X142.003 Y105.015 E.0069
M204 S1000
G1 X142.334 Y104.757 F10800
M204 S800
;TYPE:External perimeter
G1 F1500
G1 X142.337 Y104.765 E.00022
G1 X142.484 Y104.825 E.00414
G1 X143.158 Y104.825 E.01756
G1 X151.4 Y104.825 E.21475
